;FLAVOR:Marlin
;TIME:32782
;Filament used: 30.5076m
;Layer height: 0.28
;MINX:64
;MINY:75
;MINZ:0.28
;MAXX:156
;MAXY:145
;MAXZ:159.88
;Generated with Cura_SteamEngine 4.10.0
M140 S80
M105
M190 S80
M104 S245
M105
M109 S245
M82 ;absolute extrusion mode
; Ender 3 Custom Start G-code
G92 E0 ; Reset Extruder
G28 ; Home all axes
G1 Z2.0 F3000 ; Move Z Axis up little to prevent scratching of Heat Bed
G1 X0.1 Y20 Z0.3 F5000.0 ; Move to start position
G1 X0.1 Y200.0 Z0.3 F1500.0 E15 ; Draw the first line
G1 X0.4 Y200.0 Z0.3 F5000.0 ; Move to side a little
G1 X0.4 Y20 Z0.3 F1500.0 E30 ; Draw the second line
G92 E0 ; Reset Extruder
G1 Z2.0 F3000 ; Move Z Axis up little to prevent scratching of Heat Bed
G1 X5 Y20 Z0.3 F5000.0 ; Move over to prevent blob squish
G92 E0
G92 E0
G1 F1200 E-3
;LAYER_COUNT:571
;LAYER:0
M107
G0 F6000 X68.035 Y77.598 Z0.28
;TYPE:SKIRT
G1 F1200 E0
G1 F900 X68.777 Y77.024 E0.04368
G1 X69.566 Y76.517 E0.08735
G1 X70.394 Y76.078 E0.13099
G1 X71.258 Y75.711 E0.1747
G1 X72.149 Y75.419 E0.21836
G1 X73.062 Y75.205 E0.26203
G1 X73.99 Y75.068 E0.30571
G1 X74.751 Y75.016 E0.34123
G1 X75.136 Y75.006 E0.35916
G1 X75.679 Y75 E0.38444
G1 X76.676 Y75 E0.43087
G1 X77.537 Y75.011 E0.47096
G1 X78.473 Y75.064 E0.51462
G1 X79.402 Y75.197 E0.55832
G1 X80.316 Y75.409 E0.60201
G1 X80.888 Y75.584 E0.62986
G1 X81.479 Y75.783 E0.6589
G1 X83.955 Y76.579 E0.78
G1 X86.353 Y77.276 E0.89628
G1 X88.82 Y77.917 E1.01497
G1 X91.275 Y78.484 E1.1323
G1 X93.734 Y78.975 E1.24906
G1 X96.188 Y79.395 E1.36499
G1 X98.696 Y79.752 E1.48295
G1 X101.214 Y80.038 E1.60095
G1 X103.684 Y80.249 E1.71638
G1 X106.219 Y80.391 E1.83461
G1 X108.751 Y80.463 E1.95256
G1 X111.238 Y80.463 E2.06836
G1 X113.798 Y80.391 E2.18761
G1 X116.281 Y80.25 E2.30342
G1 X118.788 Y80.036 E2.42058
G1 X121.282 Y79.752 E2.53746
G1 X123.792 Y79.395 E2.65551
G1 X126.243 Y78.975 E2.77131
G1 X128.764 Y78.469 E2.89104
G1 X131.148 Y77.921 E3.00494
G1 X133.631 Y77.274 E3.12442
G1 X136.027 Y76.578 E3.2406
G1 X137.982 Y75.957 E3.33611
G1 X139.182 Y75.562 E3.39494
G1 X140.084 Y75.307 E3.43859
G1 X141.005 Y75.129 E3.48227
G1 X142.251 Y75.016 E3.54052
G1 X142.636 Y75.006 E3.55846
G1 X143.179 Y75 E3.58374
G1 X144.333 Y75.001 E3.63748
G1 X145.035 Y75.011 E3.67017
G1 X145.971 Y75.064 E3.71382
G1 X146.899 Y75.197 E3.75748
G1 X147.813 Y75.409 E3.80117
G1 X148.706 Y75.697 E3.84486
G1 X149.57 Y76.061 E3.88851
G1 X150.401 Y76.497 E3.93221
G1 X151.191 Y77.002 E3.97587
G1 X151.935 Y77.572 E4.01951
G1 X152.691 Y78.266 E4.0673
G1 X152.803 Y78.379 E4.07471
G1 X153.434 Y79.073 E4.11838
G1 X154.004 Y79.818 E4.16206
G1 X154.508 Y80.609 E4.20573
G1 X154.943 Y81.44 E4.24941
G1 X155.306 Y82.304 E4.29305
G1 X155.594 Y83.197 E4.33674
G1 X155.804 Y84.111 E4.38041
G1 X155.937 Y85.04 E4.42411
G1 X155.983 Y85.719 E4.4558
G1 X155.994 Y86.113 E4.47415
G1 X156 Y86.636 E4.4985
G1 X155.999 Y108.202 E5.50271
G1 X155.979 Y109.527 E5.56441
G1 X155.929 Y111.286 E5.64635
G1 X155.929 Y113.768 E5.76192
G1 X155.966 Y115.003 E5.81946
G1 X155.999 Y117.042 E5.91441
G1 X156 Y133.149 E6.66442
G1 X155.989 Y134.029 E6.7054
G1 X155.936 Y134.965 E6.74906
G1 X155.804 Y135.894 E6.79275
G1 X155.593 Y136.808 E6.83643
G1 X155.305 Y137.7 E6.88007
G1 X154.942 Y138.565 E6.92376
G1 X154.506 Y139.396 E6.96745
G1 X154.002 Y140.186 E7.01109
G1 X153.431 Y140.931 E7.05479
G1 X152.838 Y141.586 E7.09594
G1 X152.728 Y141.698 E7.10325
G1 X152.043 Y142.338 E7.1469
G1 X151.306 Y142.918 E7.19057
G1 X150.522 Y143.433 E7.23425
G1 X149.697 Y143.879 E7.27792
G1 X148.837 Y144.254 E7.3216
G1 X147.948 Y144.553 E7.36528
G1 X147.037 Y144.776 E7.40895
G1 X146.111 Y144.921 E7.45259
G1 X145.246 Y144.984 E7.49298
G1 X144.864 Y144.994 E7.51077
G1 X144.321 Y145 E7.53606
G1 X143.167 Y144.999 E7.58979
G1 X142.467 Y144.989 E7.62239
G1 X141.531 Y144.936 E7.66605
G1 X140.22 Y144.724 E7.72788
G1 X139.094 Y144.41 E7.78232
G1 X138.539 Y144.223 E7.80959
G1 X136.045 Y143.421 E7.93157
G1 X133.647 Y142.724 E8.04786
G1 X131.18 Y142.083 E8.16654
G1 X128.725 Y141.516 E8.28387
G1 X126.266 Y141.025 E8.40063
G1 X123.812 Y140.605 E8.51656
G1 X121.304 Y140.248 E8.63452
G1 X118.786 Y139.962 E8.75252
G1 X116.316 Y139.751 E8.86796
G1 X113.781 Y139.609 E8.98618
G1 X111.249 Y139.537 E9.10413
G1 X108.762 Y139.537 E9.21993
G1 X106.202 Y139.609 E9.33919
G1 X103.719 Y139.75 E9.45499
G1 X101.212 Y139.964 E9.57215
G1 X98.718 Y140.248 E9.68903
G1 X96.208 Y140.605 E9.80709
G1 X93.757 Y141.025 E9.92288
G1 X91.236 Y141.531 E10.04261
G1 X88.852 Y142.079 E10.15651
G1 X86.369 Y142.726 E10.27599
G1 X83.973 Y143.422 E10.39217
G1 X82.018 Y144.043 E10.48769
G1 X80.818 Y144.438 E10.54651
G1 X79.916 Y144.693 E10.59016
G1 X78.995 Y144.871 E10.63384
G1 X77.749 Y144.984 E10.6921
G1 X77.364 Y144.994 E10.71003
G1 X76.821 Y145 E10.73532
G1 X75.667 Y144.999 E10.78905
G1 X74.965 Y144.989 E10.82174
G1 X74.029 Y144.936 E10.8654
G1 X73.101 Y144.803 E10.90905
G1 X72.187 Y144.591 E10.95274
G1 X71.294 Y144.303 E10.99643
G1 X70.43 Y143.939 E11.04008
G1 X69.599 Y143.503 E11.08378
G1 X68.809 Y142.998 E11.12744
G1 X68.065 Y142.428 E11.17108
G1 X67.344 Y141.768 E11.2166
G1 X67.232 Y141.656 E11.22397
G1 X66.598 Y140.965 E11.26764
G1 X66.024 Y140.223 E11.31132
G1 X65.517 Y139.434 E11.35499
G1 X65.078 Y138.606 E11.39863
G1 X64.711 Y137.742 E11.44234
G1 X64.419 Y136.851 E11.486
G1 X64.205 Y135.938 E11.52967
G1 X64.068 Y135.01 E11.57335
G1 X64.016 Y134.249 E11.60887
G1 X64.006 Y133.852 E11.62736
G1 X64 Y133.278 E11.65409
G1 X64.001 Y116.808 E12.421
G1 X64.021 Y115.413 E12.48596
G1 X64.067 Y113.767 E12.56264
G1 X64.057 Y110.607 E12.70978
G1 X64.002 Y107.927 E12.8346
G1 X64 Y107.7 E12.84517
G1 X64.001 Y86.643 E13.82567
G1 X64.011 Y85.961 E13.85743
G1 X64.065 Y85.024 E13.90114
G1 X64.198 Y84.096 E13.94479
G1 X64.41 Y83.182 E13.98848
G1 X64.699 Y82.29 E14.03214
G1 X65.063 Y81.426 E14.0758
G1 X65.499 Y80.596 E14.11945
G1 X66.004 Y79.805 E14.16315
G1 X66.575 Y79.061 E14.20682
G1 X67.232 Y78.344 E14.2521
G1 X67.344 Y78.232 E14.25948
G1 X68.035 Y77.598 E14.30315
G0 F6000 X68.305 Y77.893
G1 F900 X69.035 Y77.332 E14.34602
G1 X69.811 Y76.836 E14.3889
G1 X70.627 Y76.41 E14.43176
G1 X71.477 Y76.056 E14.47464
G1 X72.355 Y75.778 E14.51752
G1 X73.253 Y75.576 E14.56038
G1 X74.166 Y75.453 E14.60328
G1 X74.764 Y75.416 E14.63118
G1 X75.14 Y75.406 E14.64869
G1 X75.679 Y75.4 E14.67379
G1 X76.676 Y75.4 E14.72022
G1 X77.531 Y75.411 E14.76003
G1 X78.45 Y75.464 E14.80289
G1 X79.362 Y75.597 E14.84581
G1 X80.258 Y75.808 E14.88867
G1 X80.761 Y75.963 E14.91318
G1 X81.378 Y76.171 E14.9435
G1 X83.836 Y76.961 E15.06372
G1 X86.237 Y77.658 E15.18014
G1 X88.743 Y78.311 E15.30072
G1 X91.173 Y78.871 E15.41684
G1 X93.66 Y79.368 E15.53494
G1 X96.141 Y79.793 E15.65214
G1 X98.661 Y80.152 E15.77067
G1 X101.136 Y80.432 E15.88665
G1 X103.695 Y80.651 E16.00625
G1 X106.186 Y80.791 E16.12242
G1 X108.74 Y80.863 E16.24139
G1 X111.249 Y80.863 E16.35822
G1 X113.796 Y80.791 E16.47687
G1 X116.303 Y80.649 E16.59379
G1 X118.831 Y80.434 E16.71193
G1 X121.347 Y80.147 E16.82985
G1 X123.85 Y79.791 E16.94757
G1 X126.318 Y79.368 E17.06417
G1 X128.818 Y78.866 E17.1829
G1 X131.273 Y78.302 E17.30019
G1 X133.729 Y77.662 E17.41837
G1 X136.182 Y76.949 E17.53732
G1 X138.056 Y76.354 E17.62888
G1 X139.307 Y75.942 E17.69021
G1 X140.193 Y75.692 E17.73307
G1 X141.097 Y75.52 E17.77592
G1 X142.264 Y75.416 E17.83048
G1 X142.64 Y75.406 E17.84799
G1 X143.179 Y75.4 E17.87309
G1 X144.327 Y75.401 E17.92655
G1 X145.029 Y75.411 E17.95924
G1 X145.948 Y75.464 E18.0021
G1 X146.859 Y75.597 E18.04497
G1 X147.755 Y75.808 E18.08784
G1 X148.63 Y76.096 E18.13073
G1 X149.476 Y76.459 E18.1736
G1 X150.287 Y76.894 E18.21645
G1 X151.058 Y77.398 E18.25934
G1 X151.782 Y77.966 E18.30219
G1 X152.407 Y78.548 E18.34196
G1 X152.519 Y78.661 E18.34936
G1 X153.138 Y79.342 E18.39222
G1 X153.695 Y80.075 E18.43508
G1 X154.187 Y80.853 E18.47795
G1 X154.61 Y81.671 E18.52083
G1 X154.96 Y82.523 E18.56372
G1 X155.235 Y83.401 E18.60656
G1 X155.432 Y84.301 E18.64946
G1 X155.551 Y85.214 E18.69233
G1 X155.583 Y85.734 E18.71659
G1 X155.594 Y86.118 E18.73448
G1 X155.6 Y86.636 E18.7586
G1 X155.599 Y108.196 E19.76252
G1 X155.579 Y109.515 E19.82395
G1 X155.529 Y111.274 E19.90589
G1 X155.529 Y113.78 E20.02258
G1 X155.566 Y115.009 E20.07983
G1 X155.599 Y117.048 E20.17479
G1 X155.6 Y133.149 E20.92452
G1 X155.589 Y134.023 E20.96522
G1 X155.536 Y134.943 E21.00813
G1 X155.404 Y135.854 E21.05099
G1 X155.194 Y136.75 E21.09385
G1 X154.906 Y137.624 E21.13669
G1 X154.543 Y138.471 E21.1796
G1 X154.109 Y139.282 E21.22243
G1 X153.605 Y140.053 E21.26533
G1 X153.037 Y140.778 E21.30821
G1 X152.553 Y141.306 E21.34156
G1 X152.443 Y141.418 E21.34887
G1 X151.77 Y142.046 E21.39174
G1 X151.045 Y142.613 E21.43459
G1 X150.273 Y143.116 E21.4775
G1 X149.461 Y143.549 E21.52035
G1 X148.614 Y143.911 E21.56324
G1 X147.739 Y144.197 E21.6061
G1 X146.843 Y144.407 E21.64896
G1 X145.931 Y144.538 E21.69186
G1 X145.233 Y144.584 E21.72443
G1 X144.86 Y144.594 E21.74181
G1 X144.321 Y144.6 E21.76691
G1 X143.173 Y144.599 E21.82036
G1 X142.473 Y144.589 E21.85296
G1 X141.553 Y144.536 E21.89587
G1 X140.307 Y144.334 E21.95465
G1 X139.221 Y144.031 E22.00715
G1 X138.641 Y143.835 E22.03565
G1 X136.164 Y143.039 E22.1568
G1 X133.763 Y142.342 E22.27322
G1 X131.257 Y141.689 E22.3938
G1 X128.827 Y141.129 E22.50992
G1 X126.34 Y140.632 E22.62802
G1 X123.859 Y140.207 E22.74522
G1 X121.339 Y139.848 E22.86375
G1 X118.864 Y139.568 E22.97973
G1 X116.305 Y139.349 E23.09933
G1 X113.814 Y139.209 E23.2155
G1 X111.26 Y139.137 E23.33447
G1 X108.751 Y139.137 E23.4513
G1 X106.204 Y139.209 E23.56995
G1 X103.697 Y139.351 E23.68687
G1 X101.169 Y139.566 E23.80501
G1 X98.653 Y139.853 E23.92293
G1 X96.15 Y140.209 E24.04065
G1 X93.682 Y140.632 E24.15725
G1 X91.182 Y141.134 E24.27598
G1 X88.727 Y141.698 E24.39327
G1 X86.271 Y142.338 E24.51145
G1 X83.818 Y143.051 E24.6304
G1 X81.944 Y143.646 E24.72196
G1 X80.693 Y144.058 E24.78329
G1 X79.807 Y144.308 E24.82615
G1 X78.903 Y144.48 E24.869
G1 X77.736 Y144.584 E24.92356
G1 X77.36 Y144.594 E24.94107
G1 X76.821 Y144.6 E24.96617
G1 X75.673 Y144.599 E25.01963
G1 X74.971 Y144.589 E25.05232
G1 X74.052 Y144.536 E25.09518
G1 X73.141 Y144.403 E25.13805
G1 X72.245 Y144.192 E25.18092
G1 X71.37 Y143.904 E25.22381
G1 X70.524 Y143.541 E25.26668
G1 X69.713 Y143.106 E25.30953
G1 X68.942 Y142.602 E25.35242
G1 X68.218 Y142.034 E25.39527
G1 X67.627 Y141.485 E25.43283
G1 X67.515 Y141.373 E25.44021
G1 X66.893 Y140.695 E25.48305
G1 X66.332 Y139.965 E25.52592
G1 X65.836 Y139.189 E25.5688
G1 X65.41 Y138.373 E25.61167
G1 X65.056 Y137.523 E25.65454
G1 X64.778 Y136.645 E25.69742
G1 X64.576 Y135.747 E25.74028
G1 X64.453 Y134.834 E25.78318
G1 X64.416 Y134.236 E25.81108
G1 X64.406 Y133.847 E25.8292
G1 X64.4 Y133.278 E25.8557
G1 X64.401 Y116.813 E26.62237
G1 X64.421 Y115.424 E26.68706
G1 X64.467 Y113.777 E26.76378
G1 X64.457 Y110.597 E26.91186
G1 X64.402 Y107.919 E27.03658
G1 X64.4 Y107.7 E27.04678
G1 X64.401 Y86.649 E28.027
G1 X64.411 Y85.967 E28.05876
G1 X64.465 Y85.047 E28.10167
G1 X64.598 Y84.137 E28.1445
G1 X64.809 Y83.24 E28.18741
G1 X65.098 Y82.366 E28.23027
G1 X65.461 Y81.52 E28.27314
G1 X65.896 Y80.709 E28.31599
G1 X66.4 Y79.939 E28.35884
G1 X66.969 Y79.215 E28.40172
G1 X67.515 Y78.627 E28.43908
G1 X67.627 Y78.515 E28.44646
G1 X68.305 Y77.893 E28.4893
G0 F6000 X68.576 Y78.188
G1 F900 X69.293 Y77.639 E28.53135
G1 X70.057 Y77.157 E28.57341
G1 X70.86 Y76.743 E28.61548
G1 X71.696 Y76.403 E28.65751
G1 X72.559 Y76.137 E28.69956
G1 X73.442 Y75.949 E28.74159
G1 X74.778 Y75.816 E28.80411
G1 X75.145 Y75.806 E28.82121
G1 X75.679 Y75.8 E28.84607
G1 X76.676 Y75.8 E28.8925
G1 X77.526 Y75.811 E28.93208
G1 X78.427 Y75.864 E28.97411
G1 X79.321 Y75.996 E29.01619
G1 X80.199 Y76.207 E29.05824
G1 X80.633 Y76.342 E29.0794
G1 X81.255 Y76.551 E29.10995
G1 X83.718 Y77.343 E29.23042
G1 X86.162 Y78.053 E29.34893
G1 X88.59 Y78.685 E29.46576
G1 X91.134 Y79.272 E29.58733
G1 X93.557 Y79.756 E29.70238
G1 X96.084 Y80.188 E29.82176
G1 X98.596 Y80.546 E29.93991
G1 X101.129 Y80.834 E30.05862
G1 X103.64 Y81.048 E30.17596
G1 X106.186 Y81.191 E30.2947
G1 X108.729 Y81.263 E30.41316
G1 X111.261 Y81.263 E30.53106
G1 X113.795 Y81.191 E30.6491
G1 X116.359 Y81.046 E30.76869
G1 X118.874 Y80.832 E30.88622
G1 X121.382 Y80.546 E31.00376
G1 X123.896 Y80.188 E31.122
G1 X126.433 Y79.754 E31.24185
G1 X128.881 Y79.262 E31.35812
G1 X131.359 Y78.693 E31.47651
G1 X133.837 Y78.048 E31.59574
G1 X136.288 Y77.334 E31.71461
G1 X138.203 Y76.727 E31.80815
G1 X139.432 Y76.322 E31.86841
G1 X140.301 Y76.077 E31.91045
G1 X141.189 Y75.911 E31.95252
G1 X142.278 Y75.816 E32.00342
G1 X142.645 Y75.806 E32.02051
G1 X143.179 Y75.8 E32.04538
G1 X144.321 Y75.801 E32.09855
G1 X145.023 Y75.811 E32.13125
G1 X145.925 Y75.864 E32.17332
G1 X146.818 Y75.996 E32.21535
G1 X147.696 Y76.207 E32.2574
G1 X148.552 Y76.495 E32.29946
G1 X149.38 Y76.857 E32.34153
G1 X150.172 Y77.291 E32.38359
G1 X150.922 Y77.794 E32.42564
G1 X151.625 Y78.36 E32.46766
G1 X152.122 Y78.83 E32.49951
G1 X152.234 Y78.943 E32.50692
G1 X152.841 Y79.612 E32.54899
G1 X153.386 Y80.332 E32.59103
G1 X153.866 Y81.097 E32.63309
G1 X154.276 Y81.902 E32.67515
G1 X154.613 Y82.74 E32.71721
G1 X154.874 Y83.604 E32.75924
G1 X155.058 Y84.488 E32.80128
G1 X155.183 Y85.748 E32.86024
G1 X155.194 Y86.124 E32.87776
G1 X155.2 Y86.636 E32.9016
G1 X155.199 Y108.19 E33.90524
G1 X155.179 Y109.504 E33.96644
G1 X155.129 Y111.263 E34.04838
G1 X155.129 Y113.792 E34.16614
G1 X155.166 Y115.016 E34.22316
G1 X155.199 Y117.055 E34.31811
G1 X155.2 Y133.149 E35.06752
G1 X155.189 Y134.018 E35.10799
G1 X155.137 Y134.919 E35.15001
G1 X155.005 Y135.813 E35.19209
G1 X154.794 Y136.691 E35.23414
G1 X154.507 Y137.547 E35.27618
G1 X154.145 Y138.375 E35.31826
G1 X153.712 Y139.167 E35.36029
G1 X153.21 Y139.918 E35.40235
G1 X152.643 Y140.621 E35.4444
G1 X152.267 Y141.025 E35.4701
G1 X152.157 Y141.137 E35.47741
G1 X151.496 Y141.753 E35.51948
G1 X150.784 Y142.308 E35.56152
G1 X150.025 Y142.797 E35.60356
G1 X149.226 Y143.218 E35.64562
G1 X148.393 Y143.566 E35.68765
G1 X147.532 Y143.839 E35.72971
G1 X146.65 Y144.035 E35.77178
G1 X145.755 Y144.152 E35.81381
G1 X145.22 Y144.184 E35.83877
G1 X144.855 Y144.194 E35.85577
G1 X144.321 Y144.2 E35.88064
G1 X143.178 Y144.199 E35.93386
G1 X142.478 Y144.189 E35.96646
G1 X141.577 Y144.136 E36.00849
G1 X140.393 Y143.943 E36.06435
G1 X139.349 Y143.652 E36.11481
G1 X138.764 Y143.455 E36.14356
G1 X136.282 Y142.657 E36.26495
G1 X133.838 Y141.947 E36.38346
G1 X131.41 Y141.315 E36.50029
G1 X128.866 Y140.728 E36.62186
G1 X126.443 Y140.244 E36.73691
G1 X123.916 Y139.812 E36.85629
G1 X121.404 Y139.454 E36.97444
G1 X118.871 Y139.166 E37.09315
G1 X116.36 Y138.952 E37.21049
G1 X113.814 Y138.809 E37.32923
G1 X111.271 Y138.737 E37.44769
G1 X108.739 Y138.737 E37.56559
G1 X106.205 Y138.809 E37.68363
G1 X103.641 Y138.954 E37.80321
G1 X101.126 Y139.168 E37.92075
G1 X98.618 Y139.454 E38.03829
G1 X96.104 Y139.812 E38.15653
G1 X93.567 Y140.246 E38.27638
G1 X91.119 Y140.738 E38.39265
G1 X88.641 Y141.307 E38.51104
G1 X86.163 Y141.952 E38.63027
G1 X83.712 Y142.666 E38.74914
G1 X81.797 Y143.273 E38.84268
G1 X80.568 Y143.678 E38.90294
G1 X79.699 Y143.923 E38.94498
G1 X78.811 Y144.089 E38.98705
G1 X77.722 Y144.184 E39.03795
G1 X77.355 Y144.194 E39.05504
G1 X76.821 Y144.2 E39.07991
G1 X75.679 Y144.199 E39.13308
G1 X74.977 Y144.189 E39.16578
G1 X74.075 Y144.136 E39.20785
G1 X73.182 Y144.004 E39.24988
G1 X72.304 Y143.793 E39.29193
G1 X71.448 Y143.505 E39.33398
G1 X70.62 Y143.143 E39.37606
G1 X69.828 Y142.709 E39.41812
G1 X69.078 Y142.206 E39.46017
G1 X68.375 Y141.64 E39.50219
G1 X67.91 Y141.202 E39.53194
G1 X67.798 Y141.09 E39.53931
G1 X67.188 Y140.424 E39.58137
G1 X66.639 Y139.707 E39.62342
G1 X66.157 Y138.943 E39.66548
G1 X65.743 Y138.14 E39.70755
G1 X65.403 Y137.304 E39.74957
G1 X65.137 Y136.441 E39.79162
G1 X64.949 Y135.558 E39.83366
G1 X64.816 Y134.222 E39.89618
G1 X64.806 Y133.843 E39.91383
G1 X64.8 Y133.278 E39.94014
G1 X64.801 Y116.819 E40.70654
G1 X64.821 Y115.435 E40.77099
G1 X64.867 Y113.787 E40.84776
G1 X64.857 Y110.588 E40.99672
G1 X64.802 Y107.911 E41.1214
G1 X64.8 Y107.7 E41.13122
G1 X64.801 Y86.654 E42.11121
