;FLAVOR:Marlin
;TIME:31238
;Filament used: 28.8151m
;Layer height: 0.28
;MINX:64
;MINY:75.5
;MINZ:0.28
;MAXX:156
;MAXY:144.5
;MAXZ:159.88
;Generated with Cura_SteamEngine 4.10.0
M140 S85
M105
M190 S85
M104 S240
M105
M109 S240
M82 ;absolute extrusion mode
; Ender 3 Custom Start G-code
G92 E0 ; Reset Extruder
G28 ; Home all axes
G1 Z2.0 F3000 ; Move Z Axis up little to prevent scratching of Heat Bed
G1 X0.1 Y20 Z0.3 F5000.0 ; Move to start position
G1 X0.1 Y200.0 Z0.3 F1500.0 E15 ; Draw the first line
G1 X0.4 Y200.0 Z0.3 F5000.0 ; Move to side a little
G1 X0.4 Y20 Z0.3 F1500.0 E30 ; Draw the second line
G92 E0 ; Reset Extruder
G1 Z2.0 F3000 ; Move Z Axis up little to prevent scratching of Heat Bed
G1 X5 Y20 Z0.3 F5000.0 ; Move over to prevent blob squish
G92 E0
G92 E0
G1 F2400 E-3
;LAYER_COUNT:571
;LAYER:0
M107
G0 F6000 X68.036 Y78.098 Z0.28
;TYPE:SKIRT
G1 F2400 E0
G1 F900 X68.778 Y77.524 E0.04368
G1 X69.567 Y77.017 E0.08735
G1 X70.395 Y76.578 E0.13099
G1 X71.259 Y76.211 E0.1747
G1 X72.15 Y75.919 E0.21836
G1 X73.063 Y75.705 E0.26203
G1 X73.991 Y75.568 E0.30571
G1 X74.752 Y75.516 E0.34123
G1 X75.137 Y75.506 E0.35916
G1 X75.68 Y75.5 E0.38444
G1 X76.676 Y75.5 E0.43082
G1 X77.537 Y75.511 E0.47092
G1 X78.473 Y75.564 E0.51457
G1 X79.402 Y75.697 E0.55827
G1 X80.316 Y75.909 E0.60196
G1 X80.888 Y76.084 E0.62981
G1 X81.479 Y76.283 E0.65885
G1 X83.955 Y77.079 E0.77996
G1 X86.353 Y77.776 E0.89624
G1 X88.82 Y78.417 E1.01493
G1 X91.275 Y78.984 E1.13225
G1 X93.734 Y79.475 E1.24901
G1 X96.188 Y79.895 E1.36494
G1 X98.696 Y80.252 E1.4829
G1 X101.214 Y80.538 E1.6009
G1 X103.684 Y80.749 E1.71634
G1 X106.219 Y80.891 E1.83456
G1 X108.751 Y80.963 E1.95251
G1 X111.238 Y80.963 E2.06832
G1 X113.798 Y80.891 E2.18757
G1 X116.281 Y80.75 E2.30337
G1 X118.788 Y80.536 E2.42053
G1 X121.282 Y80.252 E2.53741
G1 X123.792 Y79.895 E2.65547
G1 X126.243 Y79.475 E2.77126
G1 X128.764 Y78.969 E2.89099
G1 X131.148 Y78.421 E3.00489
G1 X133.631 Y77.774 E3.12437
G1 X136.027 Y77.078 E3.24055
G1 X137.982 Y76.457 E3.33607
G1 X139.182 Y76.062 E3.39489
G1 X140.084 Y75.807 E3.43854
G1 X141.005 Y75.629 E3.48222
G1 X142.251 Y75.516 E3.54048
G1 X142.636 Y75.506 E3.55841
G1 X143.179 Y75.5 E3.5837
G1 X144.333 Y75.501 E3.63743
G1 X145.035 Y75.511 E3.67012
G1 X145.971 Y75.564 E3.71378
G1 X146.899 Y75.697 E3.75743
G1 X147.813 Y75.909 E3.80112
G1 X148.706 Y76.197 E3.84481
G1 X149.57 Y76.561 E3.88847
G1 X150.401 Y76.997 E3.93216
G1 X151.191 Y77.502 E3.97582
G1 X151.935 Y78.072 E4.01946
G1 X152.691 Y78.766 E4.06725
G1 X152.803 Y78.879 E4.07466
G1 X153.434 Y79.573 E4.11834
G1 X154.004 Y80.318 E4.16201
G1 X154.508 Y81.109 E4.20569
G1 X154.943 Y81.94 E4.24936
G1 X155.306 Y82.804 E4.293
G1 X155.594 Y83.697 E4.33669
G1 X155.804 Y84.611 E4.38036
G1 X155.937 Y85.54 E4.42406
G1 X155.983 Y86.219 E4.45575
G1 X155.994 Y86.613 E4.4741
G1 X156 Y87.136 E4.49846
G1 X155.999 Y108.698 E5.50247
G1 X155.976 Y110.323 E5.57815
G1 X155.952 Y111.175 E5.61784
G1 X155.95 Y113.678 E5.73439
G1 X155.961 Y114.098 E5.75395
G1 X155.999 Y116.55 E5.86814
G1 X156 Y132.649 E6.61778
G1 X155.989 Y133.529 E6.65876
G1 X155.936 Y134.465 E6.70241
G1 X155.804 Y135.394 E6.7461
G1 X155.593 Y136.308 E6.78978
G1 X155.305 Y137.2 E6.83343
G1 X154.942 Y138.065 E6.87711
G1 X154.506 Y138.896 E6.92081
G1 X154.002 Y139.686 E6.96444
G1 X153.431 Y140.431 E7.00815
G1 X152.838 Y141.086 E7.04929
G1 X152.728 Y141.198 E7.0566
G1 X152.043 Y141.838 E7.10025
G1 X151.306 Y142.418 E7.14392
G1 X150.522 Y142.933 E7.1876
G1 X149.697 Y143.379 E7.23127
G1 X148.837 Y143.754 E7.27496
G1 X147.948 Y144.053 E7.31863
G1 X147.037 Y144.276 E7.3623
G1 X146.111 Y144.421 E7.40595
G1 X145.246 Y144.484 E7.44633
G1 X144.864 Y144.494 E7.46413
G1 X144.321 Y144.5 E7.48941
G1 X143.167 Y144.499 E7.54315
G1 X142.467 Y144.489 E7.57575
G1 X141.531 Y144.436 E7.6194
G1 X140.22 Y144.224 E7.68124
G1 X139.094 Y143.91 E7.73567
G1 X138.539 Y143.723 E7.76294
G1 X136.045 Y142.921 E7.88493
G1 X133.647 Y142.224 E8.00121
G1 X131.18 Y141.583 E8.1199
G1 X128.725 Y141.016 E8.23722
G1 X126.266 Y140.525 E8.35399
G1 X123.812 Y140.105 E8.46992
G1 X121.304 Y139.748 E8.58788
G1 X118.786 Y139.462 E8.70588
G1 X116.316 Y139.251 E8.82131
G1 X113.781 Y139.109 E8.93954
G1 X111.249 Y139.037 E9.05748
G1 X108.762 Y139.037 E9.17329
G1 X106.202 Y139.109 E9.29254
G1 X103.719 Y139.25 E9.40835
G1 X101.212 Y139.464 E9.52551
G1 X98.718 Y139.748 E9.64239
G1 X96.208 Y140.105 E9.76044
G1 X93.757 Y140.525 E9.87623
G1 X91.236 Y141.031 E9.99596
G1 X88.852 Y141.579 E10.10987
G1 X86.369 Y142.226 E10.22935
G1 X83.973 Y142.922 E10.34553
G1 X82.018 Y143.543 E10.44104
G1 X80.818 Y143.938 E10.49987
G1 X79.916 Y144.193 E10.54351
G1 X78.995 Y144.371 E10.58719
G1 X77.749 Y144.484 E10.64545
G1 X77.364 Y144.494 E10.66338
G1 X76.821 Y144.5 E10.68867
G1 X75.667 Y144.499 E10.7424
G1 X74.965 Y144.489 E10.7751
G1 X74.029 Y144.436 E10.81875
G1 X73.101 Y144.303 E10.8624
G1 X72.187 Y144.091 E10.90609
G1 X71.294 Y143.803 E10.94978
G1 X70.43 Y143.439 E10.99344
G1 X69.599 Y143.003 E11.03714
G1 X68.809 Y142.498 E11.0808
G1 X68.065 Y141.928 E11.12444
G1 X67.344 Y141.268 E11.16995
G1 X67.232 Y141.156 E11.17733
G1 X66.598 Y140.465 E11.221
G1 X66.024 Y139.723 E11.26468
G1 X65.517 Y138.934 E11.30835
G1 X65.078 Y138.106 E11.35199
G1 X64.711 Y137.242 E11.3957
G1 X64.419 Y136.351 E11.43936
G1 X64.205 Y135.438 E11.48302
G1 X64.068 Y134.51 E11.5267
G1 X64.016 Y133.749 E11.56222
G1 X64.006 Y133.352 E11.58071
G1 X64 Y132.778 E11.60744
G1 X64.001 Y116.306 E12.37445
G1 X64.022 Y114.79 E12.44505
G1 X64.055 Y113.633 E12.49894
G1 X64.044 Y110.412 E12.64893
G1 X64.003 Y108.416 E12.74189
G1 X64.001 Y108.188 E12.75251
G1 X64.002 Y87.143 E13.73245
G1 X64.012 Y86.461 E13.76421
G1 X64.066 Y85.524 E13.80791
G1 X64.199 Y84.596 E13.85156
G1 X64.411 Y83.682 E13.89525
G1 X64.7 Y82.79 E13.93892
G1 X65.064 Y81.926 E13.98257
G1 X65.5 Y81.096 E14.02623
G1 X66.005 Y80.305 E14.06993
G1 X66.576 Y79.561 E14.1136
G1 X67.233 Y78.844 E14.15888
G1 X67.345 Y78.732 E14.16626
G1 X68.036 Y78.098 E14.20992
G0 F6000 X68.306 Y78.393
G1 F900 X69.036 Y77.832 E14.25279
G1 X69.812 Y77.336 E14.29568
G1 X70.628 Y76.91 E14.33854
G1 X71.478 Y76.556 E14.38141
G1 X72.356 Y76.278 E14.4243
G1 X73.254 Y76.076 E14.46716
G1 X74.167 Y75.953 E14.51005
G1 X74.765 Y75.916 E14.53795
G1 X75.141 Y75.906 E14.55547
G1 X75.68 Y75.9 E14.58057
G1 X76.676 Y75.9 E14.62695
G1 X77.531 Y75.911 E14.66676
G1 X78.45 Y75.964 E14.70962
G1 X79.362 Y76.097 E14.75254
G1 X80.258 Y76.308 E14.7954
G1 X80.761 Y76.463 E14.81991
G1 X81.378 Y76.671 E14.85023
G1 X83.836 Y77.461 E14.97045
G1 X86.237 Y78.158 E15.08687
G1 X88.743 Y78.811 E15.20745
G1 X91.173 Y79.371 E15.32357
G1 X93.66 Y79.868 E15.44167
G1 X96.141 Y80.293 E15.55887
G1 X98.661 Y80.652 E15.6774
G1 X101.136 Y80.932 E15.79338
G1 X103.695 Y81.151 E15.91298
G1 X106.186 Y81.291 E16.02915
G1 X108.74 Y81.363 E16.14812
G1 X111.249 Y81.363 E16.26495
G1 X113.796 Y81.291 E16.3836
G1 X116.303 Y81.149 E16.50052
G1 X118.831 Y80.934 E16.61866
G1 X121.347 Y80.647 E16.73658
G1 X123.85 Y80.291 E16.8543
G1 X126.318 Y79.868 E16.9709
G1 X128.818 Y79.366 E17.08963
G1 X131.273 Y78.802 E17.20692
G1 X133.729 Y78.162 E17.3251
G1 X136.182 Y77.449 E17.44405
G1 X138.056 Y76.854 E17.53561
G1 X139.307 Y76.442 E17.59694
G1 X140.193 Y76.192 E17.6398
G1 X141.097 Y76.02 E17.68265
G1 X142.264 Y75.916 E17.73721
G1 X142.64 Y75.906 E17.75472
G1 X143.179 Y75.9 E17.77982
G1 X144.327 Y75.901 E17.83328
G1 X145.029 Y75.911 E17.86597
G1 X145.948 Y75.964 E17.90883
G1 X146.859 Y76.097 E17.9517
G1 X147.755 Y76.308 E17.99456
G1 X148.63 Y76.596 E18.03746
G1 X149.476 Y76.959 E18.08032
G1 X150.287 Y77.394 E18.12318
G1 X151.058 Y77.898 E18.16607
G1 X151.782 Y78.466 E18.20892
G1 X152.407 Y79.048 E18.24868
G1 X152.519 Y79.161 E18.25609
G1 X153.138 Y79.842 E18.29895
G1 X153.695 Y80.575 E18.34181
G1 X154.187 Y81.353 E18.38468
G1 X154.61 Y82.171 E18.42756
G1 X154.96 Y83.023 E18.47045
G1 X155.235 Y83.901 E18.51329
G1 X155.432 Y84.801 E18.55619
G1 X155.551 Y85.714 E18.59906
G1 X155.583 Y86.234 E18.62332
G1 X155.594 Y86.618 E18.64121
G1 X155.6 Y87.136 E18.66533
G1 X155.599 Y108.692 E19.66907
G1 X155.576 Y110.317 E19.74474
G1 X155.552 Y111.163 E19.78415
G1 X155.55 Y113.689 E19.90177
G1 X155.561 Y114.104 E19.9211
G1 X155.599 Y116.556 E20.03529
G1 X155.6 Y132.649 E20.78465
G1 X155.589 Y133.523 E20.82535
G1 X155.536 Y134.443 E20.86826
G1 X155.404 Y135.354 E20.91112
G1 X155.194 Y136.25 E20.95398
G1 X154.906 Y137.124 E20.99683
G1 X154.543 Y137.971 E21.03973
G1 X154.109 Y138.782 E21.08257
G1 X153.605 Y139.553 E21.12546
G1 X153.037 Y140.278 E21.16834
G1 X152.553 Y140.806 E21.20169
G1 X152.443 Y140.918 E21.209
G1 X151.77 Y141.546 E21.25187
G1 X151.045 Y142.113 E21.29472
G1 X150.273 Y142.616 E21.33763
G1 X149.461 Y143.049 E21.38048
G1 X148.614 Y143.411 E21.42337
G1 X147.739 Y143.697 E21.46623
G1 X146.843 Y143.907 E21.50909
G1 X145.931 Y144.038 E21.55199
G1 X145.233 Y144.084 E21.58456
G1 X144.86 Y144.094 E21.60194
G1 X144.321 Y144.1 E21.62704
G1 X143.173 Y144.099 E21.68049
G1 X142.473 Y144.089 E21.71309
G1 X141.553 Y144.036 E21.756
G1 X140.307 Y143.834 E21.81478
G1 X139.221 Y143.531 E21.86728
G1 X138.641 Y143.335 E21.89578
G1 X136.164 Y142.539 E22.01693
G1 X133.763 Y141.842 E22.13335
G1 X131.257 Y141.189 E22.25394
G1 X128.827 Y140.629 E22.37005
G1 X126.34 Y140.132 E22.48815
G1 X123.859 Y139.707 E22.60536
G1 X121.339 Y139.348 E22.72388
G1 X118.864 Y139.068 E22.83986
G1 X116.305 Y138.849 E22.95946
G1 X113.814 Y138.709 E23.07563
G1 X111.26 Y138.637 E23.1946
G1 X108.751 Y138.637 E23.31143
G1 X106.204 Y138.709 E23.43008
G1 X103.697 Y138.851 E23.547
G1 X101.169 Y139.066 E23.66514
G1 X98.653 Y139.353 E23.78306
G1 X96.15 Y139.709 E23.90078
G1 X93.682 Y140.132 E24.01738
G1 X91.182 Y140.634 E24.13611
G1 X88.727 Y141.198 E24.2534
G1 X86.271 Y141.838 E24.37158
G1 X83.818 Y142.551 E24.49053
G1 X81.944 Y143.146 E24.58209
G1 X80.693 Y143.558 E24.64342
G1 X79.807 Y143.808 E24.68628
G1 X78.903 Y143.98 E24.72913
G1 X77.736 Y144.084 E24.78369
G1 X77.36 Y144.094 E24.8012
G1 X76.821 Y144.1 E24.8263
G1 X75.673 Y144.099 E24.87976
G1 X74.971 Y144.089 E24.91245
G1 X74.052 Y144.036 E24.95531
G1 X73.141 Y143.903 E24.99818
G1 X72.245 Y143.692 E25.04105
G1 X71.37 Y143.404 E25.08394
G1 X70.524 Y143.041 E25.12681
G1 X69.713 Y142.606 E25.16966
G1 X68.942 Y142.102 E25.21255
G1 X68.218 Y141.534 E25.2554
G1 X67.627 Y140.985 E25.29296
G1 X67.515 Y140.873 E25.30034
G1 X66.893 Y140.195 E25.34318
G1 X66.332 Y139.465 E25.38605
G1 X65.836 Y138.689 E25.42893
G1 X65.41 Y137.873 E25.4718
G1 X65.056 Y137.023 E25.51467
G1 X64.778 Y136.145 E25.55755
G1 X64.576 Y135.247 E25.60041
G1 X64.453 Y134.334 E25.64331
G1 X64.416 Y133.736 E25.67121
G1 X64.406 Y133.347 E25.68933
G1 X64.4 Y132.778 E25.71583
G1 X64.401 Y116.311 E26.4826
G1 X64.425 Y114.638 E26.56051
G1 X64.454 Y113.611 E26.60835
G1 X64.444 Y110.403 E26.75773
G1 X64.403 Y108.408 E26.85064
G1 X64.401 Y108.188 E26.86089
G1 X64.402 Y87.149 E27.84055
G1 X64.412 Y86.467 E27.87231
G1 X64.466 Y85.547 E27.91522
G1 X64.599 Y84.637 E27.95805
G1 X64.81 Y83.74 E28.00096
G1 X65.099 Y82.866 E28.04382
G1 X65.462 Y82.02 E28.08669
G1 X65.897 Y81.209 E28.12954
G1 X66.401 Y80.439 E28.17239
G1 X66.97 Y79.715 E28.21527
G1 X67.516 Y79.127 E28.25263
G1 X67.628 Y79.015 E28.26001
G1 X68.306 Y78.393 E28.30285
G0 F6000 X68.577 Y78.688
G1 F900 X69.294 Y78.139 E28.3449
G1 X70.058 Y77.657 E28.38696
G1 X70.861 Y77.243 E28.42903
G1 X71.697 Y76.903 E28.47106
G1 X72.56 Y76.637 E28.51311
G1 X73.443 Y76.449 E28.55514
G1 X74.779 Y76.316 E28.61766
G1 X75.146 Y76.306 E28.63476
G1 X75.68 Y76.3 E28.65962
G1 X76.676 Y76.3 E28.706
G1 X77.526 Y76.311 E28.74559
G1 X78.427 Y76.364 E28.78761
G1 X79.321 Y76.496 E28.82969
G1 X80.199 Y76.707 E28.87174
G1 X80.633 Y76.842 E28.8929
G1 X81.255 Y77.051 E28.92346
G1 X83.718 Y77.843 E29.04393
G1 X86.162 Y78.553 E29.16244
G1 X88.59 Y79.185 E29.27926
G1 X91.134 Y79.772 E29.40083
G1 X93.557 Y80.256 E29.51589
G1 X96.084 Y80.688 E29.63526
G1 X98.596 Y81.046 E29.75341
G1 X101.129 Y81.334 E29.87212
G1 X103.64 Y81.548 E29.98947
G1 X106.186 Y81.691 E30.10821
G1 X108.729 Y81.763 E30.22667
G1 X111.261 Y81.763 E30.34457
G1 X113.795 Y81.691 E30.46261
G1 X116.359 Y81.546 E30.58219
G1 X118.874 Y81.332 E30.69972
G1 X121.382 Y81.046 E30.81726
G1 X123.896 Y80.688 E30.9355
G1 X126.433 Y80.254 E31.05535
G1 X128.881 Y79.762 E31.17162
G1 X131.359 Y79.193 E31.29001
G1 X133.837 Y78.548 E31.40924
G1 X136.288 Y77.834 E31.52811
G1 X138.203 Y77.227 E31.62166
G1 X139.432 Y76.822 E31.68191
G1 X140.301 Y76.577 E31.72395
G1 X141.189 Y76.411 E31.76602
G1 X142.278 Y76.316 E31.81692
G1 X142.645 Y76.306 E31.83402
G1 X143.179 Y76.3 E31.85888
G1 X144.321 Y76.301 E31.91206
G1 X145.023 Y76.311 E31.94475
G1 X145.925 Y76.364 E31.98682
G1 X146.818 Y76.496 E32.02886
G1 X147.696 Y76.707 E32.0709
G1 X148.552 Y76.995 E32.11296
G1 X149.38 Y77.357 E32.15504
G1 X150.172 Y77.791 E32.19709
G1 X150.922 Y78.294 E32.23914
G1 X151.625 Y78.86 E32.28117
G1 X152.122 Y79.33 E32.31302
G1 X152.234 Y79.443 E32.32043
G1 X152.841 Y80.112 E32.36249
G1 X153.386 Y80.832 E32.40454
G1 X153.866 Y81.597 E32.44659
G1 X154.276 Y82.402 E32.48866
G1 X154.613 Y83.24 E32.53071
G1 X154.874 Y84.104 E32.57274
G1 X155.058 Y84.988 E32.61479
G1 X155.183 Y86.248 E32.67374
G1 X155.194 Y86.624 E32.69126
G1 X155.2 Y87.136 E32.7151
G1 X155.199 Y108.686 E33.71856
G1 X155.173 Y110.466 E33.80145
G1 X155.152 Y111.186 E33.83499
G1 X155.15 Y113.701 E33.9521
G1 X155.161 Y114.11 E33.97116
G1 X155.2 Y116.72 E34.0927
G1 X155.199 Y132.789 E34.84094
G1 X155.189 Y133.518 E34.87489
G1 X155.137 Y134.419 E34.91691
G1 X155.005 Y135.313 E34.95899
G1 X154.794 Y136.191 E35.00104
G1 X154.507 Y137.047 E35.04308
G1 X154.145 Y137.875 E35.08516
G1 X153.712 Y138.667 E35.12719
G1 X153.21 Y139.418 E35.16925
G1 X152.643 Y140.121 E35.21131
G1 X152.267 Y140.525 E35.23701
G1 X152.157 Y140.637 E35.24432
G1 X151.496 Y141.253 E35.28639
G1 X150.784 Y141.808 E35.32843
G1 X150.025 Y142.297 E35.37047
G1 X149.226 Y142.718 E35.41252
G1 X148.393 Y143.066 E35.45456
G1 X147.532 Y143.339 E35.49662
G1 X146.65 Y143.535 E35.53869
G1 X145.755 Y143.652 E35.58072
G1 X145.22 Y143.684 E35.60567
G1 X144.855 Y143.694 E35.62268
G1 X144.321 Y143.7 E35.64754
G1 X143.178 Y143.699 E35.70077
G1 X142.478 Y143.689 E35.73336
G1 X141.577 Y143.636 E35.77539
G1 X140.393 Y143.443 E35.83125
G1 X139.349 Y143.152 E35.88172
G1 X138.764 Y142.955 E35.91046
G1 X136.282 Y142.157 E36.03186
G1 X133.838 Y141.447 E36.15037
G1 X131.41 Y140.815 E36.26719
G1 X128.866 Y140.228 E36.38876
G1 X126.443 Y139.744 E36.50382
G1 X123.916 Y139.312 E36.62319
G1 X121.404 Y138.954 E36.74134
G1 X118.871 Y138.666 E36.86005
G1 X116.36 Y138.452 E36.9774
G1 X113.814 Y138.309 E37.09614
G1 X111.271 Y138.237 E37.2146
G1 X108.739 Y138.237 E37.3325
G1 X106.205 Y138.309 E37.45054
G1 X103.641 Y138.454 E37.57012
G1 X101.126 Y138.668 E37.68765
G1 X98.618 Y138.954 E37.80519
G1 X96.104 Y139.312 E37.92343
G1 X93.567 Y139.746 E38.04328
G1 X91.119 Y140.238 E38.15955
G1 X88.641 Y140.807 E38.27794
G1 X86.163 Y141.452 E38.39717
G1 X83.712 Y142.166 E38.51605
G1 X81.797 Y142.773 E38.60959
G1 X80.568 Y143.178 E38.66984
G1 X79.699 Y143.423 E38.71188
G1 X78.811 Y143.589 E38.75395
G1 X77.722 Y143.684 E38.80485
G1 X77.355 Y143.694 E38.82195
G1 X76.821 Y143.7 E38.84681
G1 X75.679 Y143.699 E38.89999
G1 X74.977 Y143.689 E38.93268
G1 X74.075 Y143.636 E38.97475
G1 X73.182 Y143.504 E39.01679
G1 X72.304 Y143.293 E39.05883
G1 X71.448 Y143.005 E39.10089
G1 X70.62 Y142.643 E39.14297
G1 X69.828 Y142.209 E39.18502
G1 X69.078 Y141.706 E39.22707
G1 X68.375 Y141.14 E39.2691
G1 X67.91 Y140.702 E39.29884
G1 X67.798 Y140.59 E39.30622
G1 X67.188 Y139.924 E39.34827
G1 X66.639 Y139.207 E39.39032
G1 X66.157 Y138.443 E39.43238
G1 X65.743 Y137.64 E39.47445
G1 X65.403 Y136.804 E39.51648
G1 X65.137 Y135.941 E39.55853
G1 X64.949 Y135.058 E39.60056
G1 X64.816 Y133.722 E39.66308
G1 X64.806 Y133.343 E39.68074
G1 X64.8 Y132.778 E39.70705
G1 X64.801 Y116.317 E40.47354
G1 X64.825 Y114.65 E40.55117
G1 X64.854 Y113.622 E40.59906
G1 X64.844 Y110.392 E40.74946
G1 X64.803 Y108.399 E40.84228
G1 X64.801 Y108.188 E40.85211
G1 X64.802 Y87.154 E41.83154
