;FLAVOR:Marlin
;TIME:1132
;Filament used: 0.459828m
;Layer height: 0.12
;MINX:90.517
;MINY:91.222
;MINZ:0.12
;MAXX:129.484
;MAXY:128.77
;MAXZ:5.04
;Generated with Cura_SteamEngine 4.10.0
M140 S80
M105
M190 S80
M104 S245
M105
M109 S245
M82 ;absolute extrusion mode
; Ender 3 Custom Start G-code
G92 E0 ; Reset Extruder
G28 ; Home all axes
G1 Z2.0 F3000 ; Move Z Axis up little to prevent scratching of Heat Bed
G1 X0.1 Y20 Z0.3 F5000.0 ; Move to start position
G1 X0.1 Y200.0 Z0.3 F1500.0 E15 ; Draw the first line
G1 X0.4 Y200.0 Z0.3 F5000.0 ; Move to side a little
G1 X0.4 Y20 Z0.3 F1500.0 E30 ; Draw the second line
G92 E0 ; Reset Extruder
G1 Z2.0 F3000 ; Move Z Axis up little to prevent scratching of Heat Bed
G1 X5 Y20 Z0.3 F5000.0 ; Move over to prevent blob squish
G92 E0
G92 E0
G1 F1200 E-3
;LAYER_COUNT:42
;LAYER:0
M107
G0 F6000 X95.911 Y94.785 Z0.12
;TYPE:SKIRT
G1 F1200 E0
G1 F900 X96.575 Y94.123 E0.01871
G1 X97.293 Y93.519 E0.03744
G1 X98.059 Y92.979 E0.05614
G1 X98.869 Y92.506 E0.07486
G1 X99.716 Y92.103 E0.09358
G1 X100.595 Y91.775 E0.1123
G1 X101.498 Y91.522 E0.13101
G1 X102.419 Y91.347 E0.14972
G1 X103.581 Y91.24 E0.17301
G1 X104.003 Y91.228 E0.18143
G1 X104.548 Y91.222 E0.19231
G1 X115.293 Y91.222 E0.40674
G1 X116.149 Y91.233 E0.42382
G1 X117.086 Y91.287 E0.44255
G1 X118.014 Y91.419 E0.46126
G1 X118.928 Y91.631 E0.47998
G1 X119.82 Y91.92 E0.49869
G1 X120.685 Y92.283 E0.51741
G1 X121.515 Y92.719 E0.53612
G1 X122.305 Y93.224 E0.55483
G1 X123.05 Y93.795 E0.57357
G1 X123.743 Y94.427 E0.59228
G1 X124.38 Y95.115 E0.61099
G1 X124.955 Y95.856 E0.62971
G1 X125.466 Y96.642 E0.64842
G1 X125.908 Y97.47 E0.66715
G1 X126.327 Y98.466 E0.68871
G1 X126.37 Y98.584 E0.69122
G1 X126.494 Y98.942 E0.69878
G1 X126.65 Y99.424 E0.70889
G1 X128.787 Y106.261 E0.85184
G1 X129.038 Y107.106 E0.86943
G1 X129.266 Y108.016 E0.88815
G1 X129.415 Y108.942 E0.90687
G1 X129.484 Y109.877 E0.92558
G1 X129.474 Y110.815 E0.9443
G1 X129.387 Y111.728 E0.9626
G1 X129.348 Y112.011 E0.9683
G1 X129.223 Y112.737 E0.983
G1 X129.095 Y113.356 E0.99562
G1 X128.987 Y113.827 E1.00526
G1 X128.845 Y114.388 E1.01681
G1 X128.576 Y115.288 E1.03556
G1 X128.317 Y116.036 E1.05135
G1 X128.138 Y116.515 E1.06156
G1 X127.971 Y116.917 E1.07024
G1 X127.83 Y117.238 E1.07724
G1 X127.647 Y117.634 E1.08595
G1 X127.55 Y117.833 E1.09036
G1 X127.272 Y118.366 E1.10236
G1 X126.896 Y119.041 E1.11778
G1 X126.393 Y119.857 E1.13691
G1 X125.971 Y120.48 E1.15193
G1 X125.416 Y121.229 E1.17053
G1 X124.963 Y121.789 E1.1849
G1 X124.32 Y122.517 E1.20429
G1 X123.913 Y122.938 E1.21597
G1 X123.583 Y123.265 E1.22524
G1 X123.178 Y123.65 E1.23639
G1 X122.433 Y124.297 E1.25609
G1 X121.762 Y124.829 E1.27317
G1 X121.084 Y125.325 E1.28994
G1 X120.773 Y125.535 E1.29743
G1 X120.347 Y125.809 E1.30754
G1 X120.052 Y125.989 E1.31443
G1 X119.697 Y126.197 E1.32264
G1 X119.547 Y126.281 E1.32607
G1 X119.008 Y126.563 E1.33821
G1 X118.389 Y126.866 E1.35197
G1 X117.95 Y127.069 E1.36162
G1 X117.363 Y127.325 E1.3744
G1 X116.55 Y127.642 E1.39181
G1 X116.402 Y127.693 E1.39494
G1 X115.88 Y127.858 E1.40586
G1 X114.976 Y128.12 E1.42464
G1 X114.139 Y128.328 E1.44186
G1 X113.771 Y128.404 E1.44935
G1 X113.288 Y128.492 E1.45915
G1 X112.914 Y128.552 E1.46671
G1 X112.44 Y128.618 E1.47626
G1 X112.078 Y128.66 E1.48353
G1 X111.606 Y128.704 E1.49299
G1 X111.22 Y128.732 E1.50072
G1 X110.758 Y128.756 E1.50995
G1 X110.396 Y128.767 E1.51718
G1 X109.878 Y128.77 E1.52751
G1 X109.52 Y128.764 E1.53466
G1 X109.082 Y128.748 E1.54341
G1 X108.676 Y128.725 E1.55152
G1 X108.203 Y128.688 E1.56099
G1 X107.863 Y128.654 E1.56781
G1 X107.39 Y128.597 E1.57732
G1 X107.022 Y128.544 E1.58474
G1 X106.577 Y128.47 E1.59374
G1 X106.217 Y128.403 E1.60105
G1 X105.649 Y128.282 E1.61263
G1 X105.475 Y128.24 E1.61621
G1 X104.983 Y128.109 E1.62637
G1 X104.079 Y127.846 E1.64516
G1 X103.296 Y127.586 E1.66162
G1 X103.117 Y127.519 E1.66543
G1 X102.55 Y127.289 E1.67764
G1 X102.024 Y127.058 E1.68911
G1 X101.619 Y126.87 E1.69802
G1 X100.968 Y126.552 E1.71248
G1 X100.159 Y126.114 E1.73084
G1 X99.844 Y125.926 E1.73816
G1 X99.485 Y125.702 E1.7466
G1 X99.182 Y125.505 E1.75381
G1 X98.738 Y125.2 E1.76456
G1 X98.576 Y125.083 E1.76855
G1 X98.17 Y124.776 E1.77871
G1 X97.555 Y124.287 E1.79439
G1 X96.822 Y123.65 E1.81377
G1 X96.417 Y123.265 E1.82492
G1 X96.087 Y122.937 E1.83421
G1 X95.681 Y122.517 E1.84586
G1 X95.039 Y121.792 E1.86519
G1 X94.585 Y121.231 E1.87959
G1 X94.029 Y120.48 E1.89824
G1 X93.607 Y119.857 E1.91325
G1 X93.102 Y119.037 E1.93247
G1 X92.718 Y118.347 E1.94823
G1 X92.517 Y117.97 E1.95676
G1 X92.292 Y117.506 E1.96705
G1 X92.137 Y117.167 E1.97449
G1 X91.932 Y116.69 E1.98485
G1 X91.869 Y116.533 E1.98822
G1 X91.686 Y116.044 E1.99864
G1 X91.427 Y115.298 E2.0144
G1 X91.154 Y114.385 E2.03342
G1 X91.012 Y113.823 E2.04499
G1 X90.907 Y113.364 E2.05438
G1 X90.77 Y112.704 E2.06783
G1 X90.622 Y111.805 E2.08602
G1 X90.592 Y111.56 E2.09094
G1 X90.517 Y110.625 E2.10966
G1 X90.523 Y109.687 E2.12838
G1 X90.609 Y108.753 E2.1471
G1 X90.773 Y107.83 E2.16581
G1 X90.915 Y107.264 E2.17745
G1 X90.989 Y106.999 E2.18294
G1 X91.084 Y106.68 E2.18958
G1 X93.338 Y99.465 E2.34043
G1 X93.556 Y98.801 E2.35438
G1 X93.886 Y97.923 E2.37309
G1 X94.29 Y97.076 E2.39182
G1 X94.764 Y96.267 E2.41053
G1 X95.306 Y95.502 E2.42924
G1 X95.911 Y94.785 E2.44796
G0 F6000 X96.263 Y94.994
G1 F900 X96.92 Y94.349 E2.46634
G1 X97.631 Y93.764 E2.48471
G1 X98.39 Y93.243 E2.50308
G1 X99.191 Y92.789 E2.52146
G1 X100.028 Y92.407 E2.53982
G1 X100.896 Y92.099 E2.5582
G1 X101.787 Y91.867 E2.57657
G1 X102.695 Y91.714 E2.59495
G1 X103.596 Y91.64 E2.61299
G1 X104.007 Y91.628 E2.62119
G1 X104.548 Y91.622 E2.63199
G1 X115.293 Y91.622 E2.84642
G1 X116.144 Y91.633 E2.8634
G1 X117.063 Y91.686 E2.88177
G1 X117.974 Y91.819 E2.90015
G1 X118.87 Y92.03 E2.91852
G1 X119.744 Y92.318 E2.93688
G1 X120.59 Y92.681 E2.95525
G1 X121.402 Y93.116 E2.97363
G1 X122.172 Y93.62 E2.992
G1 X122.896 Y94.189 E3.01038
G1 X123.568 Y94.818 E3.02874
G1 X124.183 Y95.504 E3.04713
G1 X124.736 Y96.24 E3.0655
G1 X125.223 Y97.021 E3.08387
G1 X125.64 Y97.842 E3.10225
G1 X125.951 Y98.603 E3.11865
G1 X125.994 Y98.721 E3.12116
G1 X126.113 Y99.066 E3.12844
G1 X126.268 Y99.544 E3.13847
G1 X128.453 Y106.537 E3.28468
G1 X128.655 Y107.22 E3.29889
G1 X128.877 Y108.113 E3.31725
G1 X129.021 Y109.022 E3.33562
G1 X129.086 Y109.941 E3.354
G1 X129.071 Y110.861 E3.37237
G1 X128.991 Y111.673 E3.38865
G1 X128.952 Y111.956 E3.39435
G1 X128.831 Y112.656 E3.40853
G1 X128.703 Y113.275 E3.42114
G1 X128.599 Y113.729 E3.43043
G1 X128.457 Y114.29 E3.44198
G1 X128.198 Y115.157 E3.46004
G1 X127.939 Y115.905 E3.47584
G1 X127.766 Y116.369 E3.48572
G1 X127.605 Y116.756 E3.49408
G1 X127.464 Y117.077 E3.50108
G1 X127.287 Y117.458 E3.50946
G1 X127.19 Y117.657 E3.51388
G1 X126.922 Y118.171 E3.52545
G1 X126.546 Y118.846 E3.54087
G1 X126.062 Y119.633 E3.55931
G1 X125.64 Y120.256 E3.57432
G1 X125.105 Y120.978 E3.59226
G1 X124.652 Y121.538 E3.60663
G1 X124.032 Y122.239 E3.62531
G1 X123.625 Y122.66 E3.63699
G1 X123.307 Y122.975 E3.64592
G1 X122.902 Y123.36 E3.65708
G1 X122.184 Y123.983 E3.67605
G1 X121.513 Y124.515 E3.69314
G1 X120.86 Y124.994 E3.7093
G1 X120.549 Y125.204 E3.71679
G1 X120.138 Y125.468 E3.72653
G1 X119.843 Y125.648 E3.73343
G1 X119.501 Y125.848 E3.74134
G1 X119.351 Y125.932 E3.74477
G1 X118.832 Y126.204 E3.75646
G1 X118.213 Y126.507 E3.77021
G1 X117.79 Y126.702 E3.77951
G1 X117.203 Y126.958 E3.79229
G1 X116.419 Y127.264 E3.80908
G1 X116.271 Y127.315 E3.81221
G1 X115.769 Y127.474 E3.82272
G1 X114.865 Y127.736 E3.8415
G1 X114.058 Y127.936 E3.85809
G1 X113.69 Y128.012 E3.86559
G1 X113.225 Y128.097 E3.87502
G1 X112.851 Y128.157 E3.88258
G1 X112.394 Y128.22 E3.89179
G1 X112.032 Y128.262 E3.89906
G1 X111.577 Y128.305 E3.90818
G1 X111.191 Y128.333 E3.9159
G1 X110.746 Y128.356 E3.9248
G1 X110.384 Y128.367 E3.93202
G1 X109.884 Y128.371 E3.942
G1 X109.526 Y128.365 E3.94915
G1 X109.104 Y128.349 E3.95758
G1 X108.698 Y128.326 E3.96569
G1 X108.243 Y128.29 E3.9748
G1 X107.903 Y128.256 E3.98162
G1 X107.447 Y128.201 E3.99078
G1 X107.079 Y128.148 E3.9982
G1 X106.651 Y128.077 E4.00686
G1 X106.291 Y128.01 E4.01417
G1 X105.743 Y127.893 E4.02535
G1 X105.569 Y127.851 E4.02892
G1 X105.095 Y127.725 E4.03871
G1 X104.191 Y127.462 E4.0575
G1 X103.436 Y127.211 E4.07338
G1 X103.257 Y127.144 E4.07719
G1 X102.711 Y126.922 E4.08895
G1 X102.185 Y126.691 E4.10042
G1 X101.795 Y126.51 E4.109
G1 X101.144 Y126.192 E4.12346
G1 X100.364 Y125.77 E4.14115
G1 X100.049 Y125.582 E4.14847
G1 X99.703 Y125.367 E4.1566
G1 X99.4 Y125.17 E4.16382
G1 X98.972 Y124.876 E4.17418
G1 X98.81 Y124.759 E4.17817
G1 X98.419 Y124.463 E4.18795
G1 X97.804 Y123.974 E4.20363
G1 X97.098 Y123.36 E4.2223
G1 X96.693 Y122.975 E4.23346
G1 X96.375 Y122.659 E4.2424
G1 X95.969 Y122.239 E4.25406
G1 X95.35 Y121.54 E4.27269
G1 X94.896 Y120.979 E4.28709
G1 X94.36 Y120.256 E4.30506
G1 X93.938 Y119.633 E4.32007
G1 X93.452 Y118.843 E4.33858
G1 X93.068 Y118.153 E4.35434
G1 X92.873 Y117.786 E4.36263
G1 X92.656 Y117.34 E4.37253
G1 X92.501 Y117.001 E4.37997
G1 X92.303 Y116.541 E4.38996
G1 X92.24 Y116.384 E4.39334
G1 X92.064 Y115.913 E4.40337
G1 X91.805 Y115.167 E4.41913
G1 X91.542 Y114.287 E4.43746
G1 X91.4 Y113.725 E4.44903
G1 X91.298 Y113.282 E4.4581
G1 X91.161 Y112.622 E4.47155
G1 X91.019 Y111.756 E4.48907
G1 X90.989 Y111.511 E4.49399
G1 X90.916 Y110.594 E4.51235
G1 X90.924 Y109.673 E4.53073
G1 X91.012 Y108.756 E4.54911
G1 X91.179 Y107.851 E4.56748
G1 X91.301 Y107.372 E4.57734
G1 X91.375 Y107.107 E4.58283
G1 X91.466 Y106.799 E4.58924
G1 X93.718 Y99.59 E4.73996
G1 X93.936 Y98.926 E4.75391
G1 X94.261 Y98.064 E4.77229
G1 X94.659 Y97.234 E4.79066
G1 X95.128 Y96.442 E4.80903
G1 X95.664 Y95.693 E4.82741
G1 X96.263 Y94.994 E4.84578
G0 F6000 X96.614 Y95.204
G1 F900 X97.265 Y94.578 E4.8638
G1 X97.968 Y94.012 E4.88182
G1 X98.719 Y93.51 E4.89984
G1 X99.511 Y93.076 E4.91787
G1 X100.339 Y92.714 E4.9359
G1 X101.195 Y92.427 E4.95392
G1 X102.073 Y92.217 E4.97193
G1 X102.967 Y92.085 E4.98997
G1 X103.612 Y92.04 E5.00287
G1 X104.012 Y92.028 E5.01086
G1 X104.548 Y92.022 E5.02155
G1 X115.293 Y92.022 E5.23598
G1 X116.138 Y92.033 E5.25284
G1 X117.039 Y92.086 E5.27086
G1 X117.933 Y92.218 E5.28889
G1 X118.811 Y92.429 E5.30691
G1 X119.667 Y92.717 E5.32493
G1 X120.494 Y93.079 E5.34295
G1 X121.286 Y93.513 E5.36097
G1 X122.037 Y94.016 E5.37901
G1 X122.74 Y94.583 E5.39703
G1 X123.39 Y95.21 E5.41506
G1 X123.982 Y95.892 E5.43308
G1 X124.511 Y96.623 E5.45109
G1 X124.974 Y97.399 E5.46912
G1 X125.366 Y98.212 E5.48713
G1 X125.576 Y98.74 E5.49847
G1 X125.619 Y98.858 E5.50098
G1 X125.733 Y99.19 E5.50798
G1 X125.887 Y99.663 E5.51791
G1 X128.024 Y106.5 E5.66086
G1 X128.271 Y107.333 E5.6782
G1 X128.489 Y108.21 E5.69623
G1 X128.628 Y109.102 E5.71425
G1 X128.688 Y110.003 E5.73227
G1 X128.667 Y110.906 E5.75029
G1 X128.595 Y111.618 E5.76457
G1 X128.556 Y111.901 E5.77027
G1 X128.44 Y112.575 E5.78392
G1 X128.312 Y113.194 E5.79654
G1 X128.211 Y113.631 E5.80549
G1 X128.069 Y114.192 E5.81704
G1 X127.82 Y115.026 E5.8344
G1 X127.561 Y115.774 E5.8502
G1 X127.394 Y116.223 E5.85976
G1 X127.239 Y116.595 E5.8678
G1 X127.098 Y116.916 E5.8748
G1 X126.928 Y117.283 E5.88287
G1 X126.831 Y117.482 E5.88729
G1 X126.573 Y117.977 E5.89843
G1 X126.197 Y118.652 E5.91385
G1 X125.731 Y119.408 E5.93157
G1 X125.309 Y120.031 E5.94659
G1 X124.794 Y120.726 E5.96385
G1 X124.341 Y121.286 E5.97822
G1 X123.744 Y121.961 E5.99621
G1 X123.337 Y122.382 E6.00789
G1 X123.032 Y122.685 E6.01647
G1 X122.627 Y123.07 E6.02762
G1 X121.936 Y123.67 E6.04589
G1 X121.265 Y124.202 E6.06297
G1 X120.636 Y124.662 E6.07853
G1 X120.325 Y124.872 E6.08601
G1 X119.93 Y125.126 E6.09539
G1 X119.635 Y125.306 E6.10228
G1 X119.306 Y125.499 E6.10989
G1 X119.156 Y125.583 E6.11332
G1 X118.656 Y125.844 E6.12458
G1 X118.037 Y126.147 E6.13833
G1 X117.63 Y126.336 E6.14729
G1 X117.043 Y126.592 E6.16007
G1 X116.289 Y126.885 E6.17621
G1 X116.141 Y126.936 E6.17934
G1 X115.657 Y127.09 E6.18947
G1 X114.753 Y127.352 E6.20825
G1 X113.977 Y127.544 E6.22421
G1 X113.609 Y127.62 E6.23171
G1 X113.162 Y127.702 E6.24078
G1 X112.788 Y127.762 E6.24833
G1 X112.348 Y127.823 E6.2572
G1 X111.986 Y127.865 E6.26447
G1 X111.548 Y127.906 E6.27325
G1 X111.162 Y127.934 E6.28097
G1 X110.734 Y127.956 E6.28953
G1 X110.372 Y127.967 E6.29675
G1 X109.891 Y127.971 E6.30635
G1 X109.533 Y127.965 E6.3135
G1 X109.127 Y127.95 E6.32161
G1 X108.721 Y127.927 E6.32972
G1 X108.283 Y127.892 E6.33849
G1 X107.943 Y127.858 E6.34531
G1 X107.504 Y127.805 E6.35413
G1 X107.136 Y127.752 E6.36155
G1 X106.724 Y127.684 E6.36989
G1 X106.364 Y127.617 E6.37719
G1 X105.837 Y127.504 E6.38795
G1 X105.663 Y127.462 E6.39152
G1 X105.207 Y127.341 E6.40094
G1 X104.303 Y127.078 E6.41972
G1 X103.576 Y126.837 E6.43501
G1 X103.397 Y126.77 E6.43882
G1 X102.872 Y126.556 E6.45014
G1 X102.346 Y126.325 E6.4616
G1 X101.97 Y126.151 E6.46987
G1 X101.319 Y125.833 E6.48433
G1 X100.569 Y125.427 E6.50135
G1 X100.254 Y125.239 E6.50867
G1 X99.921 Y125.031 E6.5165
G1 X99.618 Y124.834 E6.52372
G1 X99.206 Y124.552 E6.53368
G1 X99.044 Y124.435 E6.53767
G1 X98.668 Y124.15 E6.54708
G1 X98.053 Y123.661 E6.56276
G1 X97.373 Y123.07 E6.58074
G1 X96.968 Y122.685 E6.59189
G1 X96.662 Y122.381 E6.6005
G1 X96.256 Y121.961 E6.61216
G1 X95.661 Y121.289 E6.63007
G1 X95.207 Y120.728 E6.64447
G1 X94.691 Y120.031 E6.66178
G1 X94.269 Y119.408 E6.67679
G1 X93.801 Y118.648 E6.69461
G1 X93.417 Y117.958 E6.71036
G1 X93.228 Y117.603 E6.71839
G1 X93.02 Y117.173 E6.72792
G1 X92.865 Y116.834 E6.73536
G1 X92.675 Y116.392 E6.74496
G1 X92.612 Y116.235 E6.74834
G1 X92.442 Y115.781 E6.75801
G1 X92.183 Y115.035 E6.77377
G1 X91.93 Y114.189 E6.79139
G1 X91.788 Y113.627 E6.80296
G1 X91.69 Y113.201 E6.81168
G1 X91.553 Y112.541 E6.82514
G1 X91.416 Y111.708 E6.84198
G1 X91.386 Y111.463 E6.84691
G1 X91.316 Y110.562 E6.86494
G1 X91.326 Y109.659 E6.88296
G1 X91.415 Y108.761 E6.90097
G1 X91.686 Y107.48 E6.9271
G1 X91.76 Y107.215 E6.93259
G1 X91.848 Y106.918 E6.93877
G1 X94.098 Y99.714 E7.08939
G1 X94.316 Y99.05 E7.10333
G1 X94.635 Y98.206 E7.12134
G1 X95.028 Y97.392 E7.13938
G1 X95.492 Y96.617 E7.1574
G1 X96.022 Y95.886 E7.17542
G1 X96.614 Y95.204 E7.19344
G1 F1200 E4.19344
;MESH:Eye - Eye.stl
G0 F6000 X103.274 Y102.317
G0 X104.305 Y102.638
G0 X103.107 Y110.351
G0 X103.496 Y111.775
G0 X104.039 Y112.868
G0 X104.757 Y113.84
G0 X105.641 Y114.681
G0 X106.637 Y115.348
G0 X107.747 Y115.836
G0 X110.126 Y116.378
;TYPE:WALL-INNER
G1 F1200 E7.19344
G1 F900 X109.874 Y116.378 E7.19847
G1 X109.516 Y116.363 E7.20562
G1 X109.236 Y116.338 E7.21123
G1 X108.897 Y116.294 E7.21806
G1 X108.625 Y116.247 E7.22356
G1 X108.287 Y116.173 E7.23047
G1 X108.036 Y116.105 E7.23566
G1 X107.691 Y115.997 E7.24287
G1 X107.418 Y115.898 E7.24867
G1 X107.144 Y115.785 E7.25458
G1 X106.837 Y115.643 E7.26133
G1 X106.56 Y115.5 E7.26755
G1 X106.318 Y115.361 E7.27312
G1 X106.03 Y115.178 E7.27993
G1 X105.794 Y115.014 E7.28567
G1 X105.537 Y114.817 E7.29213
G1 X105.291 Y114.614 E7.2985
G1 X105.089 Y114.429 E7.30396
G1 X104.853 Y114.195 E7.31059
G1 X104.633 Y113.957 E7.31706
G1 X104.423 Y113.708 E7.32356
G1 X104.263 Y113.502 E7.32877
G1 X104.066 Y113.223 E7.33558
G1 X103.891 Y112.953 E7.342
G1 X103.746 Y112.702 E7.34779
G1 X103.598 Y112.423 E7.35409
G1 X103.455 Y112.12 E7.36078
G1 X103.339 Y111.842 E7.36679
G1 X103.227 Y111.539 E7.37324
G1 X103.151 Y111.304 E7.37816
G1 X103.053 Y110.946 E7.38557
G1 X102.986 Y110.651 E7.39161
G1 X102.93 Y110.341 E7.3979
G1 X105.029 Y103.622 E7.53837
G1 X114.971 Y103.622 E7.73677
G1 X117.07 Y110.341 E7.87725
G1 X117.014 Y110.651 E7.88354
G1 X116.947 Y110.946 E7.88957
G1 X116.854 Y111.287 E7.89663
G1 X116.771 Y111.544 E7.90202
G1 X116.656 Y111.857 E7.90867
G1 X116.545 Y112.12 E7.91437
G1 X116.402 Y112.423 E7.92105
G1 X116.254 Y112.702 E7.92736
G1 X116.102 Y112.965 E7.93342
G1 X115.915 Y113.255 E7.9403
G1 X115.77 Y113.459 E7.9453
G1 X115.568 Y113.718 E7.95185
G1 X115.367 Y113.957 E7.95809
G1 X115.147 Y114.195 E7.96455
G1 X114.911 Y114.429 E7.97119
G1 X114.709 Y114.614 E7.97665
G1 X114.463 Y114.817 E7.98302
G1 X114.206 Y115.014 E7.98948
G1 X113.97 Y115.178 E7.99521
G1 X113.682 Y115.362 E8.00203
