;FLAVOR:Marlin
;TIME:571
;Filament used: 0.336164m
;Layer height: 0.2
;MINX:86
;MINY:86.25
;MINZ:0.2
;MAXX:134
;MAXY:133.75
;MAXZ:6
;Generated with Cura_SteamEngine 4.10.0
M140 S85
M105
M190 S85
M104 S240
M105
M109 S240
M82 ;absolute extrusion mode
; Ender 3 Custom Start G-code
G92 E0 ; Reset Extruder
G28 ; Home all axes
G1 Z2.0 F3000 ; Move Z Axis up little to prevent scratching of Heat Bed
G1 X0.1 Y20 Z0.3 F5000.0 ; Move to start position
G1 X0.1 Y200.0 Z0.3 F1500.0 E15 ; Draw the first line
G1 X0.4 Y200.0 Z0.3 F5000.0 ; Move to side a little
G1 X0.4 Y20 Z0.3 F1500.0 E30 ; Draw the second line
G92 E0 ; Reset Extruder
G1 Z2.0 F3000 ; Move Z Axis up little to prevent scratching of Heat Bed
G1 X5 Y20 Z0.3 F5000.0 ; Move over to prevent blob squish
G92 E0
G92 E0
G1 F2400 E-3
;LAYER_COUNT:30
;LAYER:0
M107
G0 F6000 X89.198 Y89.514 Z0.2
;TYPE:SKIRT
G1 F2400 E0
G1 F900 X89.886 Y88.877 E0.03119
G1 X90.626 Y88.301 E0.06237
G1 X91.412 Y87.789 E0.09357
G1 X92.239 Y87.347 E0.12476
G1 X93.101 Y86.977 E0.15596
G1 X93.991 Y86.681 E0.18716
G1 X94.903 Y86.463 E0.21835
G1 X95.83 Y86.322 E0.24953
G1 X96.701 Y86.263 E0.27857
G1 X97.022 Y86.254 E0.28925
G1 X97.33 Y86.25 E0.29949
G1 X122.293 Y86.25 E1.12977
G1 X123.149 Y86.261 E1.15824
G1 X124.085 Y86.315 E1.18942
G1 X125.013 Y86.447 E1.2206
G1 X125.927 Y86.659 E1.25181
G1 X126.819 Y86.948 E1.28299
G1 X127.684 Y87.311 E1.31419
G1 X128.514 Y87.747 E1.34538
G1 X129.305 Y88.252 E1.37659
G1 X130.049 Y88.823 E1.40778
G1 X130.742 Y89.455 E1.43898
G1 X131.379 Y90.143 E1.47016
G1 X131.954 Y90.884 E1.50136
G1 X132.465 Y91.67 E1.53254
G1 X132.907 Y92.498 E1.56376
G1 X133.276 Y93.36 E1.59494
G1 X133.571 Y94.25 E1.62613
G1 X133.789 Y95.162 E1.65732
G1 X133.929 Y96.09 E1.68853
G1 X133.987 Y96.951 E1.71723
G1 X133.996 Y97.271 E1.72788
G1 X134 Y97.58 E1.73816
G1 X133.999 Y98.661 E1.77411
G1 X133.989 Y99.395 E1.79853
G1 X133.936 Y100.331 E1.82971
G1 X133.804 Y101.26 E1.86092
G1 X133.677 Y101.849 E1.88096
G1 X133.577 Y102.261 E1.89506
G1 X132.994 Y104.786 E1.98125
G1 X132.489 Y107.283 E2.06598
G1 X132.068 Y109.752 E2.14929
G1 X131.714 Y112.231 E2.23258
G1 X131.43 Y114.724 E2.31603
G1 X131.214 Y117.248 E2.40029
G1 X131.072 Y119.733 E2.48307
G1 X130.996 Y122.401 E2.57185
G1 X130.988 Y122.916 E2.58898
G1 X130.933 Y123.852 E2.62016
G1 X130.798 Y124.781 E2.65139
G1 X130.585 Y125.694 E2.68257
G1 X130.295 Y126.586 E2.71376
G1 X129.93 Y127.45 E2.74496
G1 X129.493 Y128.28 E2.77616
G1 X128.987 Y129.069 E2.80733
G1 X128.415 Y129.812 E2.83852
G1 X127.782 Y130.504 E2.86971
G1 X127.092 Y131.14 E2.90093
G1 X126.351 Y131.715 E2.93212
G1 X125.563 Y132.224 E2.96332
G1 X124.735 Y132.664 E2.99451
G1 X123.873 Y133.033 E3.0257
G1 X122.982 Y133.326 E3.05689
G1 X122.069 Y133.542 E3.0881
G1 X121.142 Y133.68 E3.11927
G1 X120.299 Y133.737 E3.14737
G1 X119.98 Y133.746 E3.15798
G1 X119.67 Y133.75 E3.1683
G1 X119.049 Y133.749 E3.18895
G1 X118.352 Y133.739 E3.21214
G1 X117.733 Y133.713 E3.23274
G1 X116.32 Y133.613 E3.27986
G1 X114.119 Y133.481 E3.35319
G1 X111.604 Y133.4 E3.43689
G1 X109.073 Y133.39 E3.52107
G1 X106.559 Y133.45 E3.60471
G1 X104.017 Y133.584 E3.68937
G1 X102.953 Y133.669 E3.72487
G1 X102.197 Y133.718 E3.75007
G1 X101.79 Y133.737 E3.76362
G1 X101.502 Y133.744 E3.7732
G1 X100.932 Y133.75 E3.79216
G1 X100.549 Y133.749 E3.8049
G1 X99.851 Y133.739 E3.82812
G1 X98.915 Y133.685 E3.8593
G1 X97.987 Y133.553 E3.89048
G1 X97.073 Y133.341 E3.92169
G1 X96.181 Y133.052 E3.95287
G1 X95.316 Y132.689 E3.98407
G1 X94.486 Y132.253 E4.01526
G1 X93.695 Y131.748 E4.04647
G1 X92.951 Y131.177 E4.07766
G1 X92.258 Y130.545 E4.10886
G1 X91.621 Y129.857 E4.14004
G1 X91.046 Y129.116 E4.17124
G1 X90.535 Y128.33 E4.20242
G1 X90.093 Y127.502 E4.23364
G1 X89.724 Y126.64 E4.26482
G1 X89.429 Y125.75 E4.29601
G1 X89.211 Y124.838 E4.3272
G1 X89.071 Y123.91 E4.35841
G1 X89.013 Y123.054 E4.38695
G1 X88.981 Y121.89 E4.42568
G1 X88.95 Y120.446 E4.47372
G1 X88.824 Y117.894 E4.5587
G1 X88.626 Y115.363 E4.64314
G1 X88.365 Y112.904 E4.72538
G1 X88.023 Y110.379 E4.81013
G1 X87.62 Y107.929 E4.89271
G1 X87.139 Y105.434 E4.97723
G1 X86.588 Y102.965 E5.06137
G1 X86.44 Y102.363 E5.08198
G1 X86.295 Y101.738 E5.10332
G1 X86.122 Y100.816 E5.13453
G1 X86.015 Y99.583 E5.17569
G1 X86.005 Y99.251 E5.18674
G1 X86 Y98.92 E5.19775
G1 X86.001 Y97.775 E5.23583
G1 X86.01 Y97.11 E5.25795
G1 X86.063 Y96.174 E5.28913
G1 X86.195 Y95.245 E5.32034
G1 X86.406 Y94.331 E5.35154
G1 X86.694 Y93.439 E5.38272
G1 X87.057 Y92.574 E5.41392
G1 X87.492 Y91.743 E5.44511
G1 X87.996 Y90.953 E5.47628
G1 X88.566 Y90.208 E5.50748
G1 X89.198 Y89.514 E5.5387
G0 F6000 X89.589 Y89.689
G1 F900 X90.274 Y89.073 E5.56934
G1 X91.01 Y88.52 E5.59996
G1 X91.791 Y88.032 E5.63059
G1 X92.611 Y87.614 E5.6612
G1 X93.465 Y87.269 E5.69184
G1 X94.345 Y86.999 E5.72245
G1 X95.245 Y86.807 E5.75306
G1 X96.159 Y86.693 E5.7837
G1 X96.712 Y86.663 E5.80212
G1 X97.033 Y86.654 E5.8128
G1 X97.33 Y86.65 E5.82267
G1 X122.293 Y86.65 E6.65295
G1 X123.143 Y86.661 E6.68122
G1 X124.062 Y86.714 E6.71184
G1 X124.973 Y86.847 E6.74246
G1 X125.869 Y87.058 E6.77308
G1 X126.743 Y87.346 E6.80368
G1 X127.59 Y87.709 E6.83433
G1 X128.401 Y88.144 E6.86494
G1 X129.171 Y88.648 E6.89555
G1 X129.895 Y89.217 E6.92618
G1 X130.567 Y89.847 E6.95681
G1 X131.182 Y90.532 E6.98743
G1 X131.735 Y91.268 E7.01805
G1 X132.222 Y92.049 E7.04866
G1 X132.639 Y92.87 E7.07929
G1 X132.984 Y93.724 E7.10993
G1 X133.253 Y94.604 E7.14053
G1 X133.445 Y95.505 E7.17117
G1 X133.558 Y96.418 E7.20177
G1 X133.587 Y96.962 E7.21989
G1 X133.596 Y97.282 E7.23054
G1 X133.6 Y97.58 E7.24045
G1 X133.599 Y98.655 E7.2762
G1 X133.589 Y99.389 E7.30062
G1 X133.537 Y100.309 E7.33127
G1 X133.404 Y101.22 E7.36189
G1 X133.289 Y101.754 E7.38006
G1 X133.204 Y102.101 E7.39194
G1 X132.597 Y104.731 E7.48171
G1 X132.097 Y107.208 E7.56576
G1 X131.671 Y109.699 E7.64981
G1 X131.319 Y112.165 E7.73266
G1 X131.029 Y114.712 E7.81792
G1 X130.817 Y117.192 E7.90071
G1 X130.672 Y119.733 E7.98536
G1 X130.596 Y122.389 E8.07374
G1 X130.588 Y122.91 E8.09107
G1 X130.533 Y123.829 E8.12169
G1 X130.399 Y124.74 E8.15231
G1 X130.186 Y125.635 E8.18291
G1 X129.897 Y126.509 E8.21353
G1 X129.532 Y127.355 E8.24418
G1 X129.096 Y128.166 E8.2748
G1 X128.591 Y128.935 E8.3054
G1 X128.021 Y129.658 E8.33602
G1 X127.39 Y130.329 E8.36666
G1 X126.704 Y130.943 E8.39728
G1 X125.967 Y131.494 E8.42788
G1 X125.185 Y131.98 E8.45851
G1 X124.364 Y132.396 E8.48912
G1 X123.509 Y132.739 E8.51976
G1 X122.628 Y133.007 E8.55039
G1 X121.728 Y133.197 E8.58098
G1 X120.814 Y133.309 E8.61161
G1 X120.288 Y133.337 E8.62913
G1 X119.969 Y133.346 E8.63974
G1 X119.67 Y133.35 E8.64969
G1 X119.055 Y133.349 E8.67014
G1 X118.358 Y133.339 E8.69333
G1 X117.762 Y133.314 E8.71317
G1 X116.349 Y133.214 E8.76028
G1 X114.156 Y133.083 E8.83335
G1 X111.583 Y133 E8.91897
G1 X109.065 Y132.99 E9.00272
G1 X106.529 Y133.051 E9.0871
G1 X104.035 Y133.182 E9.17016
G1 X102.928 Y133.27 E9.2071
G1 X102.172 Y133.319 E9.23229
G1 X101.775 Y133.338 E9.24551
G1 X101.498 Y133.344 E9.25473
G1 X100.932 Y133.35 E9.27356
G1 X100.555 Y133.349 E9.28609
G1 X99.857 Y133.339 E9.30931
G1 X98.938 Y133.286 E9.33993
G1 X98.027 Y133.153 E9.37055
G1 X97.131 Y132.942 E9.40117
G1 X96.257 Y132.654 E9.43177
G1 X95.41 Y132.291 E9.46242
G1 X94.599 Y131.856 E9.49303
G1 X93.829 Y131.352 E9.52364
G1 X93.105 Y130.783 E9.55427
G1 X92.433 Y130.153 E9.5849
G1 X91.818 Y129.468 E9.61552
G1 X91.265 Y128.732 E9.64614
G1 X90.778 Y127.951 E9.67676
G1 X90.361 Y127.13 E9.70738
G1 X90.016 Y126.276 E9.73802
G1 X89.747 Y125.396 E9.76862
G1 X89.555 Y124.495 E9.79926
G1 X89.442 Y123.582 E9.82986
G1 X89.413 Y123.042 E9.84785
G1 X89.38 Y121.881 E9.88648
G1 X89.348 Y120.382 E9.93635
G1 X89.224 Y117.879 E10.0197
G1 X89.027 Y115.361 E10.1037
G1 X88.756 Y112.806 E10.18916
G1 X88.421 Y110.331 E10.27223
G1 X88.015 Y107.859 E10.35555
G1 X87.527 Y105.335 E10.44105
G1 X86.988 Y102.919 E10.52338
G1 X86.829 Y102.273 E10.54551
G1 X86.684 Y101.648 E10.56685
G1 X86.515 Y100.743 E10.59747
G1 X86.415 Y99.571 E10.63659
G1 X86.405 Y99.239 E10.64764
G1 X86.4 Y98.92 E10.65825
G1 X86.401 Y97.781 E10.69614
G1 X86.41 Y97.116 E10.71826
G1 X86.462 Y96.196 E10.74891
G1 X86.594 Y95.285 E10.77952
G1 X86.805 Y94.389 E10.81014
G1 X87.092 Y93.514 E10.84077
G1 X87.455 Y92.668 E10.87138
G1 X87.889 Y91.856 E10.90201
G1 X88.392 Y91.085 E10.93263
G1 X88.961 Y90.361 E10.96325
G1 X89.589 Y89.689 E10.99384
G0 F6000 X89.981 Y89.867
G1 F900 X90.662 Y89.274 E11.02388
G1 X91.394 Y88.744 E11.05394
G1 X92.169 Y88.281 E11.08396
G1 X92.982 Y87.888 E11.114
G1 X93.827 Y87.568 E11.14405
G1 X94.696 Y87.325 E11.17406
G1 X95.584 Y87.159 E11.20411
G1 X96.723 Y87.063 E11.24213
G1 X97.044 Y87.054 E11.25281
G1 X97.33 Y87.05 E11.26232
G1 X122.293 Y87.05 E12.09259
G1 X123.137 Y87.061 E12.12067
G1 X124.039 Y87.114 E12.15072
G1 X124.932 Y87.246 E12.18074
G1 X125.81 Y87.457 E12.21078
G1 X126.666 Y87.745 E12.24082
G1 X127.493 Y88.107 E12.27084
G1 X128.285 Y88.542 E12.3009
G1 X129.036 Y89.044 E12.33094
G1 X129.739 Y89.611 E12.36098
G1 X130.389 Y90.238 E12.39102
G1 X130.981 Y90.92 E12.42105
G1 X131.511 Y91.651 E12.45109
G1 X131.973 Y92.427 E12.48112
G1 X132.366 Y93.24 E12.51116
G1 X132.684 Y94.085 E12.54119
G1 X132.927 Y94.955 E12.57123
G1 X133.092 Y95.843 E12.60127
G1 X133.187 Y96.973 E12.63899
G1 X133.196 Y97.293 E12.64963
G1 X133.2 Y97.58 E12.65918
G1 X133.199 Y98.65 E12.69477
G1 X133.189 Y99.384 E12.71918
G1 X133.137 Y100.286 E12.74924
G1 X133.005 Y101.179 E12.77926
G1 X132.9 Y101.66 E12.79563
G1 X132.814 Y102.011 E12.80765
G1 X132.207 Y104.64 E12.8974
G1 X131.699 Y107.153 E12.98267
G1 X131.279 Y109.617 E13.0658
G1 X130.92 Y112.13 E13.15023
G1 X130.635 Y114.634 E13.23406
G1 X130.415 Y117.197 E13.31962
G1 X130.272 Y119.701 E13.40303
G1 X130.196 Y122.386 E13.49237
G1 X130.188 Y122.903 E13.50957
G1 X130.133 Y123.805 E13.53963
G1 X129.999 Y124.698 E13.56966
G1 X129.787 Y125.576 E13.5997
G1 X129.498 Y126.431 E13.62972
G1 X129.134 Y127.258 E13.65977
G1 X128.699 Y128.049 E13.6898
G1 X128.195 Y128.799 E13.71985
G1 X127.627 Y129.501 E13.74989
G1 X126.999 Y130.15 E13.77992
G1 X126.317 Y130.741 E13.80994
G1 X125.584 Y131.269 E13.83999
G1 X124.808 Y131.731 E13.87002
G1 X123.994 Y132.122 E13.90006
G1 X123.148 Y132.439 E13.93011
G1 X122.278 Y132.681 E13.96014
G1 X121.39 Y132.844 E13.99017
G1 X120.277 Y132.937 E14.02732
G1 X119.958 Y132.946 E14.03793
G1 X119.67 Y132.95 E14.04751
G1 X119.061 Y132.949 E14.06777
G1 X118.364 Y132.939 E14.09095
G1 X117.79 Y132.915 E14.11006
G1 X116.405 Y132.817 E14.15624
G1 X114.154 Y132.683 E14.23124
G1 X111.598 Y132.6 E14.3163
G1 X109.057 Y132.59 E14.40081
G1 X106.533 Y132.65 E14.48479
G1 X103.98 Y132.785 E14.56982
G1 X102.902 Y132.871 E14.60579
G1 X102.146 Y132.92 E14.63098
G1 X101.76 Y132.938 E14.64384
G1 X101.493 Y132.944 E14.65272
G1 X100.932 Y132.95 E14.67138
G1 X100.561 Y132.949 E14.68372
G1 X99.863 Y132.939 E14.70694
G1 X98.961 Y132.886 E14.73699
G1 X98.068 Y132.754 E14.76701
G1 X97.19 Y132.543 E14.79705
G1 X96.334 Y132.255 E14.82709
G1 X95.507 Y131.893 E14.85711
G1 X94.715 Y131.458 E14.88717
G1 X93.964 Y130.956 E14.91721
G1 X93.261 Y130.389 E14.94725
G1 X92.611 Y129.762 E14.97729
G1 X92.019 Y129.08 E15.00732
G1 X91.489 Y128.349 E15.03736
G1 X91.027 Y127.573 E15.06739
G1 X90.634 Y126.76 E15.09743
G1 X90.316 Y125.915 E15.12746
G1 X90.073 Y125.045 E15.1575
G1 X89.908 Y124.157 E15.18754
G1 X89.813 Y123.031 E15.22512
G1 X89.78 Y121.873 E15.26366
G1 X89.748 Y120.39 E15.31299
G1 X89.621 Y117.827 E15.39834
G1 X89.426 Y115.32 E15.48198
G1 X89.156 Y112.785 E15.56677
G1 X88.817 Y110.279 E15.65088
G1 X88.402 Y107.755 E15.73595
G1 X87.922 Y105.269 E15.82017
G1 X87.367 Y102.782 E15.90492
G1 X87.219 Y102.182 E15.92547
G1 X87.074 Y101.557 E15.94681
G1 X86.909 Y100.669 E15.97685
G1 X86.815 Y99.559 E16.0139
G1 X86.805 Y99.227 E16.02495
G1 X86.8 Y98.92 E16.03516
G1 X86.801 Y97.786 E16.07288
G1 X86.81 Y97.121 E16.095
G1 X86.862 Y96.219 E16.12505
G1 X86.994 Y95.326 E16.15507
G1 X87.204 Y94.448 E16.1851
G1 X87.491 Y93.591 E16.21516
G1 X87.853 Y92.764 E16.24519
G1 X88.286 Y91.972 E16.27521
G1 X88.788 Y91.221 E16.30525
G1 X89.355 Y90.517 E16.33532
G1 X89.981 Y89.867 E16.36533
G1 F2400 E13.36533
;MESH:GPS Ant Clip - GPS Ant Clip.stl
G0 F6000 X96.588 Y96.839
G0 X97.414 Y97.664
G0 X118.928 Y98.822
G0 X118.928 Y121.678
G0 X118.769 Y121.85
;TYPE:WALL-INNER
G1 F2400 E16.36533
G1 F900 X119.1 Y121.85 E16.37634
G1 X119.1 Y107.15 E16.86527
G1 X119.1 Y106.85 E16.87524
G1 X119.1 Y98.65 E17.14798
G1 X100.9 Y98.65 E17.75331
G1 X100.9 Y106.85 E18.02604
G1 X100.9 Y107.15 E18.03602
G1 X100.9 Y121.85 E18.52495
G1 X101.231 Y121.85 E18.53596
G1 X101.499 Y121.85 E18.54487
G1 X101.231 Y122.15 E18.55187
G1 X100.9 Y122.15 E18.56015
G1 X100.6 Y122.15 E18.57013
G1 X100.6 Y121.85 E18.58011
G1 X100.6 Y107.15 E18.94772
G1 X99.933 Y107.15 E18.9699
G1 X99.833 Y106.85 E18.98042
G1 X99.933 Y106.85
G1 X100.6 Y106.85 E18.9971
G1 X100.6 Y98.65 E19.20216
G1 X97.6 Y98.65 E19.30194
G1 X97.6 Y97.85 E19.32855
G1 X122.4 Y97.85 E20.1534
G1 X122.4 Y98.65 E20.18001
G1 X119.4 Y98.65 E20.27979
G1 X119.4 Y106.85 E20.48485
G1 X120.067 Y106.85 E20.50704
G1 X120.167 Y106.85 E20.51036
G1 X120.067 Y107.15 E20.51714
G1 X119.4 Y107.15 E20.53382
G1 X119.4 Y121.85 E20.90144
G1 X119.4 Y122.15 E20.91141
G1 X119.1 Y122.15 E20.92139
G1 X118.769 Y122.15 E20.92967
G1 X118.501 Y121.85 E20.94305
G1 X118.769 Y121.85 E20.94559
G0 F6000 X118.7 Y121.45
;TYPE:WALL-OUTER
G1 F900 X118.7 Y99.05 E21.69062
G1 X101.3 Y99.05 E22.26934
G1 X101.3 Y121.45 E23.01437
G1 X102.391 Y121.45 E23.05066
G1 X101.411 Y122.55 E23.09966
G1 X100.2 Y122.55 E23.13994
G1 X100.2 Y107.55 E23.63884
G1 X99.644 Y107.55 E23.65733
G1 X99.278 Y106.45 E23.69589
G1 X100.2 Y106.45 E23.72655
G1 X100.2 Y99.05 E23.97268
G1 X97.2 Y99.05 E24.07246
G1 X97.2 Y97.45 E24.12568
G1 X122.8 Y97.45 E24.97714
G1 X122.8 Y99.05 E25.03035
G1 X119.8 Y99.05 E25.13013
G1 X119.8 Y106.45 E25.37626
G1 X120.722 Y106.45 E25.40692
G1 X120.356 Y107.55 E25.44548
G1 X119.8 Y107.55 E25.46397
G1 X119.8 Y122.55 E25.96288
G1 X118.589 Y122.55 E26.00315
G1 X117.609 Y121.45 E26.05215
G1 X118.7 Y121.45 E26.08844
G0 F6000 X118.365 Y121.759
;TYPE:SKIN
G1 F900 X118.23 Y121.624 E26.09161
M104 S245
G1 F2400 E23.09161
G0 F6000 X118.23 Y121.75
G0 X118.928 Y121.678
G0 X118.928 Y98.822
G0 X101.072 Y98.822
G0 X101.072 Y121.678
G0 X101.826 Y121.7
G0 X101.871 Y121.67
G1 F2400 E26.09161
G1 F900 X101.691 Y121.773 E26.09815
G0 F6000 X101.693 Y121.784
G0 X101.072 Y121.678
G0 X101.072 Y98.822
G0 X101.867 Y98.473
G0 X101.642 Y98.248
G1 F900 X101.36 Y98.248 E26.10977
G1 X97.982 Y98.265 E26.24901
G1 X97.841 Y98.406 E26.25723
G0 F6000 X97.775 Y98.34
G0 X101.701 Y98.024
G0 X101.925 Y98.248
G1 F900 X102.208 Y98.248 E26.26801
G1 X112.108 Y98.249 E26.64509
G1 X122.004 Y98.245 E27.02202
G1 X122.145 Y98.103 E27.02964
G0 F6000 X122.2 Y98.182
;MESH:NONMESH
G0 F300 X122.2 Y98.182 Z0.4
G0 F6000 X119.572 Y98.822
G0 X118.928 Y121.678
G0 X118.769 Y121.85
;TIME_ELAPSED:63.985632
;LAYER:1
M106 S34
;TYPE:WALL-INNER
;MESH:GPS Ant Clip - GPS Ant Clip.stl
G1 F1200 X119.1 Y121.85 E27.04065
G1 X119.1 Y107.15 E27.52957
G1 X119.1 Y106.85 E27.53955
G1 X119.1 Y98.65 E27.81228
G1 X100.9 Y98.65 E28.41762
G1 X100.9 Y106.85 E28.69035
G1 X100.9 Y107.15 E28.70033
G1 X100.9 Y121.85 E29.18925
G1 X101.231 Y121.85 E29.20026
G1 X101.499 Y121.85 E29.20917
G1 X101.231 Y122.15 E29.21618
G1 X100.9 Y122.15 E29.22446
G1 X100.6 Y122.15 E29.23443
G1 X100.6 Y121.85 E29.24441
G1 X100.6 Y107.15 E29.61202
G1 X99.933 Y107.15 E29.63421
G1 X99.833 Y106.85 E29.64473
G1 X99.933 Y106.85
G1 X100.6 Y106.85 E29.66141
G1 X100.6 Y98.65 E29.86647
G1 X97.6 Y98.65 E29.96625
G1 X97.6 Y97.85 E29.99286
G1 X122.4 Y97.85 E30.81771
G1 X122.4 Y98.65 E30.84432
G1 X119.4 Y98.65 E30.9441
G1 X119.4 Y106.85 E31.14916
G1 X120.067 Y106.85 E31.17134
G1 X120.167 Y106.85 E31.17467
G1 X120.067 Y107.15 E31.18145
G1 X119.4 Y107.15 E31.19813
G1 X119.4 Y121.85 E31.56574
G1 X119.4 Y122.15 E31.57572
G1 X119.1 Y122.15 E31.5857
G1 X118.769 Y122.15 E31.59397
G1 X118.501 Y121.85 E31.60735
G1 X118.769 Y121.85 E31.6099
G0 F7500 X118.7 Y121.45
;TYPE:WALL-OUTER
G1 F1200 X118.7 Y99.05 E32.35492
G1 X101.3 Y99.05 E32.93365
