;FLAVOR:Marlin
;TIME:290
;Filament used: 0.0891861m
;Layer height: 0.12
;MINX:91.021
;MINY:95.731
;MINZ:0.12
;MAXX:128.98
;MAXY:124.277
;MAXZ:2.52
;Generated with Cura_SteamEngine 4.10.0
M140 S80
M105
M190 S80
M104 S245
M105
M109 S245
M82 ;absolute extrusion mode
; Ender 3 Custom Start G-code
G92 E0 ; Reset Extruder
G28 ; Home all axes
G1 Z2.0 F3000 ; Move Z Axis up little to prevent scratching of Heat Bed
G1 X0.1 Y20 Z0.3 F5000.0 ; Move to start position
G1 X0.1 Y200.0 Z0.3 F1500.0 E15 ; Draw the first line
G1 X0.4 Y200.0 Z0.3 F5000.0 ; Move to side a little
G1 X0.4 Y20 Z0.3 F1500.0 E30 ; Draw the second line
G92 E0 ; Reset Extruder
G1 Z2.0 F3000 ; Move Z Axis up little to prevent scratching of Heat Bed
G1 X5 Y20 Z0.3 F5000.0 ; Move over to prevent blob squish
G92 E0
G92 E0
G1 F1200 E-3
;LAYER_COUNT:21
;LAYER:0
M107
G0 F6000 X96.526 Y101.286 Z0.12
;TYPE:SKIRT
G1 F1200 E0
G1 F900 X97.061 Y100.776 E0.01475
G1 X97.783 Y100.146 E0.03387
G1 X98.416 Y99.64 E0.05004
G1 X99.067 Y99.157 E0.06622
G1 X99.194 Y99.07 E0.06929
G1 X99.716 Y98.734 E0.08168
G1 X100.486 Y98.268 E0.09964
G1 X101.236 Y97.853 E0.11675
G1 X101.544 Y97.698 E0.12363
G1 X102.034 Y97.467 E0.13444
G1 X102.183 Y97.401 E0.13769
G1 X102.647 Y97.208 E0.14772
G1 X103.402 Y96.914 E0.16389
G1 X104.344 Y96.595 E0.18374
G1 X105.131 Y96.368 E0.20008
G1 X105.924 Y96.171 E0.21639
G1 X106.258 Y96.101 E0.2232
G1 X106.748 Y96.01 E0.23314
G1 X106.914 Y95.983 E0.2365
G1 X107.485 Y95.905 E0.248
G1 X108.098 Y95.838 E0.26031
G1 X108.568 Y95.797 E0.26972
G1 X109.219 Y95.754 E0.28274
G1 X110.098 Y95.731 E0.30029
G1 X110.241 Y95.733 E0.30314
G1 X110.813 Y95.756 E0.31457
G1 X111.433 Y95.797 E0.32697
G1 X111.894 Y95.837 E0.3362
G1 X112.548 Y95.908 E0.34933
G1 X113.432 Y96.041 E0.36717
G1 X113.771 Y96.106 E0.37406
G1 X114.267 Y96.213 E0.38418
G1 X114.417 Y96.249 E0.38726
G1 X114.907 Y96.378 E0.39737
G1 X115.664 Y96.597 E0.4131
G1 X116.606 Y96.917 E0.43295
G1 X117.408 Y97.23 E0.45013
G1 X118.187 Y97.569 E0.46709
G1 X118.469 Y97.705 E0.47334
G1 X118.91 Y97.93 E0.48322
G1 X119.077 Y98.02 E0.487
G1 X119.552 Y98.291 E0.49792
G1 X120.314 Y98.752 E0.51569
G1 X121.093 Y99.271 E0.53437
G1 X121.24 Y99.378 E0.538
G1 X121.642 Y99.684 E0.54808
G1 X122.224 Y100.15 E0.56296
G1 X122.954 Y100.789 E0.58232
G1 X123.487 Y101.299 E0.59704
G1 X124.146 Y101.987 E0.61605
G1 X124.696 Y102.613 E0.63268
G1 X125.261 Y103.312 E0.65062
G1 X125.342 Y103.421 E0.65333
G1 X125.651 Y103.858 E0.66401
G1 X126.165 Y104.625 E0.68243
G1 X126.646 Y105.413 E0.70086
G1 X126.722 Y105.55 E0.70398
G1 X126.964 Y106.011 E0.71437
G1 X127.36 Y106.812 E0.73221
G1 X127.708 Y107.592 E0.74925
G1 X127.848 Y107.941 E0.75675
G1 X128.023 Y108.406 E0.76667
G1 X128.066 Y108.529 E0.76927
G1 X128.24 Y109.071 E0.78063
G1 X128.5 Y109.96 E0.79911
G1 X128.717 Y110.833 E0.81707
G1 X128.761 Y111.047 E0.82143
G1 X128.91 Y111.973 E0.84014
G1 X128.98 Y112.908 E0.85885
G1 X128.971 Y113.846 E0.87757
G1 X128.881 Y114.779 E0.89628
G1 X128.712 Y115.702 E0.915
G1 X128.465 Y116.607 E0.93373
G1 X128.142 Y117.487 E0.95243
G1 X127.745 Y118.337 E0.97115
G1 X127.278 Y119.15 E0.98986
G1 X126.742 Y119.92 E1.00859
G1 X126.143 Y120.641 E1.02729
G1 X125.485 Y121.31 E1.04602
G1 X124.772 Y121.919 E1.06473
G1 X124.01 Y122.466 E1.08345
G1 X123.204 Y122.945 E1.10216
G1 X122.361 Y123.355 E1.12087
G1 X121.485 Y123.691 E1.13959
G1 X120.584 Y123.951 E1.15831
G1 X119.664 Y124.133 E1.17702
G1 X118.732 Y124.237 E1.19574
G1 X118.178 Y124.26 E1.2068
G1 X117.128 Y124.277 E1.22776
G1 X102.547 Y124.276 E1.51874
G1 X101.859 Y124.266 E1.53247
G1 X100.923 Y124.212 E1.55118
G1 X99.994 Y124.079 E1.56991
G1 X99.081 Y123.867 E1.58861
G1 X98.188 Y123.579 E1.60734
G1 X97.324 Y123.215 E1.62605
G1 X96.494 Y122.779 E1.64475
G1 X95.704 Y122.273 E1.66348
G1 X94.959 Y121.703 E1.6822
G1 X94.266 Y121.071 E1.70091
G1 X93.63 Y120.382 E1.71963
G1 X93.054 Y119.641 E1.73836
G1 X92.544 Y118.855 E1.75705
G1 X92.102 Y118.027 E1.77578
G1 X91.733 Y117.165 E1.7945
G1 X91.438 Y116.275 E1.81321
G1 X91.22 Y115.363 E1.83192
G1 X91.081 Y114.435 E1.85065
G1 X91.021 Y113.499 E1.86936
G1 X91.042 Y112.561 E1.88809
G1 X91.142 Y111.629 E1.90679
G1 X91.243 Y111.058 E1.91836
G1 X91.301 Y110.775 E1.92413
G1 X91.517 Y109.903 E1.94206
G1 X91.763 Y109.06 E1.95958
G1 X92.041 Y108.231 E1.97703
G1 X92.168 Y107.897 E1.98416
G1 X92.368 Y107.409 E1.99469
G1 X92.433 Y107.26 E1.99793
G1 X92.655 Y106.782 E2.00845
G1 X93.056 Y105.971 E2.0265
G1 X93.477 Y105.199 E2.04405
G1 X93.55 Y105.077 E2.04689
G1 X93.849 Y104.604 E2.05805
G1 X94.364 Y103.835 E2.07652
G1 X94.907 Y103.094 E2.09486
G1 X94.998 Y102.98 E2.09777
G1 X95.325 Y102.589 E2.10794
G1 X95.846 Y101.995 E2.12371
G1 X96.526 Y101.286 E2.14331
G0 F6000 X96.802 Y101.576
G1 F900 X97.337 Y101.066 E2.15806
G1 X98.032 Y100.458 E2.17649
G1 X98.665 Y99.952 E2.19266
G1 X99.293 Y99.487 E2.20826
G1 X99.42 Y99.4 E2.21133
G1 X99.923 Y99.076 E2.22327
G1 X100.693 Y98.61 E2.24123
G1 X101.416 Y98.21 E2.25772
G1 X101.724 Y98.055 E2.2646
G1 X102.196 Y97.832 E2.27502
G1 X102.345 Y97.766 E2.27827
G1 X102.792 Y97.58 E2.28793
G1 X103.547 Y97.286 E2.3041
G1 X104.455 Y96.979 E2.32323
G1 X105.242 Y96.752 E2.33957
G1 X106.006 Y96.562 E2.35528
G1 X106.34 Y96.492 E2.36209
G1 X106.812 Y96.404 E2.37168
G1 X106.978 Y96.377 E2.37503
G1 X107.528 Y96.303 E2.38611
G1 X108.141 Y96.236 E2.39841
G1 X108.594 Y96.196 E2.40749
G1 X109.245 Y96.153 E2.42051
G1 X110.092 Y96.131 E2.43742
G1 X110.235 Y96.133 E2.44027
G1 X110.786 Y96.155 E2.45127
G1 X111.406 Y96.196 E2.46367
G1 X111.851 Y96.235 E2.47259
G1 X112.505 Y96.306 E2.48572
G1 X113.357 Y96.434 E2.50291
G1 X113.696 Y96.499 E2.5098
G1 X114.174 Y96.602 E2.51956
G1 X114.324 Y96.638 E2.52263
G1 X114.796 Y96.763 E2.53238
G1 X115.553 Y96.982 E2.54811
G1 X116.461 Y97.289 E2.56723
G1 X117.263 Y97.602 E2.58441
G1 X118.014 Y97.929 E2.60076
G1 X118.296 Y98.065 E2.60701
G1 X118.72 Y98.282 E2.61651
G1 X118.887 Y98.372 E2.6203
G1 X119.345 Y98.634 E2.63083
G1 X120.107 Y99.095 E2.6486
G1 X120.858 Y99.594 E2.66659
G1 X121.005 Y99.701 E2.67022
G1 X121.392 Y99.997 E2.67995
G1 X121.974 Y100.463 E2.69482
G1 X122.677 Y101.078 E2.71346
G1 X123.21 Y101.588 E2.72819
G1 X123.845 Y102.251 E2.74651
G1 X124.395 Y102.877 E2.76314
G1 X124.94 Y103.551 E2.78043
G1 X125.021 Y103.66 E2.78314
G1 X125.319 Y104.081 E2.79344
G1 X125.833 Y104.848 E2.81186
G1 X126.296 Y105.607 E2.8296
G1 X126.372 Y105.744 E2.83273
G1 X126.605 Y106.188 E2.84274
G1 X127.001 Y106.989 E2.86057
G1 X127.337 Y107.741 E2.87701
G1 X127.477 Y108.09 E2.88451
G1 X127.645 Y108.538 E2.89406
G1 X127.688 Y108.661 E2.89666
G1 X127.856 Y109.184 E2.90762
G1 X128.116 Y110.073 E2.9261
G1 X128.325 Y110.913 E2.94338
G1 X128.369 Y111.127 E2.94774
G1 X128.515 Y112.036 E2.96611
G1 X128.582 Y112.954 E2.98448
G1 X128.568 Y113.875 E3.00286
G1 X128.475 Y114.791 E3.02124
G1 X128.303 Y115.695 E3.0396
G1 X128.053 Y116.581 E3.05797
G1 X127.727 Y117.442 E3.07634
G1 X127.327 Y118.272 E3.09473
G1 X126.857 Y119.064 E3.11311
G1 X126.321 Y119.811 E3.13146
G1 X125.721 Y120.51 E3.14984
G1 X125.063 Y121.154 E3.16821
G1 X124.351 Y121.738 E3.18659
G1 X123.592 Y122.258 E3.20495
G1 X122.79 Y122.711 E3.22333
G1 X121.952 Y123.092 E3.2417
G1 X121.084 Y123.399 E3.26008
G1 X120.193 Y123.63 E3.27845
G1 X119.285 Y123.782 E3.29682
G1 X118.171 Y123.86 E3.3191
G1 X117.128 Y123.877 E3.33992
G1 X102.553 Y123.876 E3.63078
G1 X101.865 Y123.866 E3.64451
G1 X100.946 Y123.813 E3.66288
G1 X100.035 Y123.68 E3.68125
G1 X99.139 Y123.468 E3.69963
G1 X98.264 Y123.18 E3.71801
G1 X97.418 Y122.817 E3.73638
G1 X96.607 Y122.381 E3.75476
G1 X95.837 Y121.877 E3.77312
G1 X95.113 Y121.309 E3.79149
G1 X94.441 Y120.679 E3.80987
G1 X93.827 Y119.993 E3.82824
G1 X93.274 Y119.257 E3.84661
G1 X92.787 Y118.476 E3.86498
G1 X92.37 Y117.655 E3.88336
G1 X92.026 Y116.801 E3.90173
G1 X91.757 Y115.921 E3.92009
G1 X91.565 Y115.02 E3.93848
G1 X91.452 Y114.106 E3.95686
G1 X91.419 Y113.186 E3.97523
G1 X91.466 Y112.267 E3.99359
G1 X91.635 Y111.139 E4.01635
G1 X91.693 Y110.856 E4.02212
G1 X91.901 Y110.015 E4.03941
G1 X92.147 Y109.172 E4.05693
G1 X92.415 Y108.374 E4.07373
G1 X92.542 Y108.04 E4.08086
G1 X92.734 Y107.569 E4.09101
G1 X92.799 Y107.42 E4.09426
G1 X93.013 Y106.96 E4.10438
G1 X93.414 Y106.149 E4.12243
G1 X93.82 Y105.404 E4.13937
G1 X93.893 Y105.282 E4.1422
G1 X94.182 Y104.827 E4.15296
G1 X94.697 Y104.058 E4.17143
G1 X95.22 Y103.343 E4.18911
G1 X95.311 Y103.229 E4.19202
G1 X95.626 Y102.852 E4.20182
G1 X96.147 Y102.258 E4.21759
G1 X96.802 Y101.576 E4.23646
G0 F6000 X97.078 Y101.865
G1 F900 X97.613 Y101.355 E4.25121
G1 X98.282 Y100.771 E4.26893
G1 X98.915 Y100.265 E4.28511
G1 X99.519 Y99.817 E4.30011
G1 X99.646 Y99.73 E4.30318
G1 X100.13 Y99.419 E4.31467
G1 X100.9 Y98.953 E4.33263
G1 X101.596 Y98.568 E4.3485
G1 X101.904 Y98.413 E4.35538
G1 X102.358 Y98.198 E4.36541
G1 X102.507 Y98.132 E4.36866
G1 X102.937 Y97.953 E4.37795
G1 X103.692 Y97.659 E4.39412
G1 X104.566 Y97.364 E4.41253
G1 X105.353 Y97.137 E4.42888
G1 X106.088 Y96.954 E4.44399
G1 X106.422 Y96.884 E4.4508
G1 X106.876 Y96.799 E4.46002
G1 X107.042 Y96.772 E4.46337
G1 X107.572 Y96.7 E4.47405
G1 X108.185 Y96.633 E4.48635
G1 X108.621 Y96.595 E4.49509
G1 X109.272 Y96.552 E4.50811
G1 X110.087 Y96.531 E4.52438
G1 X110.23 Y96.533 E4.52723
G1 X110.76 Y96.554 E4.53782
G1 X111.38 Y96.595 E4.55022
G1 X111.808 Y96.633 E4.55879
G1 X112.462 Y96.704 E4.57192
G1 X113.282 Y96.826 E4.58846
G1 X113.621 Y96.891 E4.59535
G1 X114.08 Y96.991 E4.60473
G1 X114.23 Y97.027 E4.6078
G1 X114.685 Y97.147 E4.6172
G1 X115.442 Y97.366 E4.63292
G1 X116.315 Y97.662 E4.65132
G1 X117.117 Y97.975 E4.6685
G1 X117.84 Y98.29 E4.68424
G1 X118.122 Y98.426 E4.69048
G1 X118.53 Y98.634 E4.69962
G1 X118.697 Y98.724 E4.70341
G1 X119.138 Y98.976 E4.71354
G1 X119.9 Y99.437 E4.73132
G1 X120.623 Y99.917 E4.74864
G1 X120.77 Y100.024 E4.75226
G1 X121.142 Y100.309 E4.76162
G1 X121.724 Y100.775 E4.7765
G1 X122.401 Y101.367 E4.79444
G1 X122.934 Y101.877 E4.80916
G1 X123.545 Y102.515 E4.82679
G1 X124.095 Y103.141 E4.84342
G1 X124.619 Y103.789 E4.86005
G1 X124.7 Y103.898 E4.86276
G1 X124.986 Y104.304 E4.87267
G1 X125.5 Y105.071 E4.8911
G1 X125.946 Y105.801 E4.90817
G1 X126.022 Y105.938 E4.9113
G1 X126.247 Y106.366 E4.92095
G1 X126.643 Y107.167 E4.93878
G1 X126.966 Y107.889 E4.95456
G1 X127.106 Y108.238 E4.96207
G1 X127.268 Y108.67 E4.97127
G1 X127.311 Y108.793 E4.97387
G1 X127.472 Y109.296 E4.98441
G1 X127.732 Y110.185 E5.0029
G1 X127.933 Y110.994 E5.01953
G1 X127.977 Y111.208 E5.02389
G1 X128.12 Y112.1 E5.04192
G1 X128.183 Y113 E5.05993
G1 X128.166 Y113.903 E5.07795
G1 X128.069 Y114.801 E5.09597
G1 X127.893 Y115.687 E5.114
G1 X127.64 Y116.554 E5.13202
G1 X127.311 Y117.395 E5.15005
G1 X126.909 Y118.204 E5.16807
G1 X126.437 Y118.974 E5.1861
G1 X125.899 Y119.699 E5.20411
G1 X125.298 Y120.373 E5.22213
G1 X124.641 Y120.992 E5.24015
G1 X123.931 Y121.551 E5.25818
G1 X123.174 Y122.044 E5.27621
G1 X122.377 Y122.468 E5.29422
G1 X121.546 Y122.821 E5.31224
G1 X120.686 Y123.098 E5.33027
G1 X119.805 Y123.298 E5.3483
G1 X118.911 Y123.42 E5.36631
G1 X118.164 Y123.46 E5.38124
G1 X117.128 Y123.477 E5.40191
G1 X102.559 Y123.476 E5.69265
G1 X101.871 Y123.466 E5.70638
G1 X100.969 Y123.413 E5.72442
G1 X100.076 Y123.28 E5.74243
G1 X99.198 Y123.069 E5.76045
G1 X98.342 Y122.781 E5.77848
G1 X97.515 Y122.419 E5.79649
G1 X96.723 Y121.984 E5.81453
G1 X95.973 Y121.482 E5.83254
G1 X95.27 Y120.915 E5.85056
G1 X94.62 Y120.288 E5.86858
G1 X94.028 Y119.606 E5.8866
G1 X93.498 Y118.874 E5.90464
G1 X93.036 Y118.098 E5.92266
G1 X92.644 Y117.285 E5.94067
G1 X92.325 Y116.44 E5.9587
G1 X92.082 Y115.57 E5.97672
G1 X91.918 Y114.682 E5.99474
G1 X91.832 Y113.783 E6.01277
G1 X91.826 Y112.88 E6.03079
G1 X91.901 Y111.98 E6.04881
G1 X92.027 Y111.219 E6.0642
G1 X92.085 Y110.936 E6.06997
G1 X92.285 Y110.127 E6.0866
G1 X92.531 Y109.284 E6.10412
G1 X92.789 Y108.516 E6.12029
G1 X92.916 Y108.182 E6.12742
G1 X93.101 Y107.729 E6.13719
G1 X93.166 Y107.58 E6.14043
G1 X93.372 Y107.137 E6.15018
G1 X93.773 Y106.326 E6.16824
G1 X94.163 Y105.61 E6.18451
G1 X94.236 Y105.488 E6.18734
G1 X94.514 Y105.049 E6.19771
G1 X95.029 Y104.28 E6.21618
G1 X95.532 Y103.593 E6.23318
G1 X95.623 Y103.479 E6.23609
G1 X95.927 Y103.116 E6.24554
G1 X96.448 Y102.522 E6.2613
G1 X97.078 Y101.865 E6.27947
G1 F1200 E3.27947
;MESH:Mouth - Mouth.stl
G0 F6000 X105.733 Y107.159
G0 X106.273 Y108.097
G0 X110.996 Y108.369
G0 X112.091 Y108.634
G0 X113.183 Y109.111
G0 X114.321 Y109.906
G0 X114.868 Y110.498
G0 X116.053 Y111.877
;TYPE:WALL-INNER
G1 F1200 E6.27947
G1 F900 X115.911 Y111.877 E6.2823
G1 X115.803 Y111.877 E6.28446
G1 X104.212 Y111.877 E6.51577
G1 X104.065 Y111.877 E6.5187
G1 X103.946 Y111.877 E6.52108
G1 X104.065 Y111.648 E6.52388
G1 X104.138 Y111.521 E6.52626
G1 X104.238 Y111.348 E6.53025
G1 X104.369 Y111.145 E6.53507
G1 X104.568 Y110.861 E6.54199
G1 X104.725 Y110.656 E6.54714
G1 X104.942 Y110.398 E6.55387
G1 X105.124 Y110.199 E6.55925
G1 X105.326 Y109.998 E6.56494
G1 X105.563 Y109.781 E6.57135
G1 X105.752 Y109.624 E6.57625
G1 X105.992 Y109.44 E6.58229
G1 X106.276 Y109.241 E6.58921
G1 X106.492 Y109.104 E6.59431
G1 X106.756 Y108.952 E6.60039
G1 X107.042 Y108.803 E6.60683
G1 X107.252 Y108.706 E6.61144
G1 X107.534 Y108.589 E6.61754
G1 X107.859 Y108.47 E6.62444
G1 X108.136 Y108.384 E6.63023
G1 X108.373 Y108.321 E6.63513
G1 X108.687 Y108.252 E6.64154
G1 X108.973 Y108.201 E6.64734
G1 X109.288 Y108.16 E6.65368
G1 X109.53 Y108.139 E6.65853
G1 X109.885 Y108.123 E6.66562
G1 X110.117 Y108.123 E6.67025
G1 X110.472 Y108.138 E6.67734
G1 X110.712 Y108.16 E6.68215
G1 X111.027 Y108.201 E6.68849
G1 X111.313 Y108.252 E6.69428
G1 X111.627 Y108.321 E6.7007
G1 X111.864 Y108.384 E6.70559
G1 X112.141 Y108.47 E6.71138
G1 X112.471 Y108.591 E6.7184
G1 X112.73 Y108.698 E6.72399
G1 X112.991 Y108.82 E6.72974
G1 X113.26 Y108.959 E6.73578
G1 X113.493 Y109.094 E6.74115
G1 X113.733 Y109.246 E6.74682
G1 X114.009 Y109.439 E6.75354
G1 X114.218 Y109.599 E6.7588
G1 X114.437 Y109.781 E6.76448
G1 X114.674 Y109.998 E6.77089
G1 X114.876 Y110.199 E6.77658
G1 X115.058 Y110.398 E6.78196
G1 X115.281 Y110.663 E6.78887
G1 X115.427 Y110.854 E6.79367
G1 X115.631 Y111.145 E6.80076
G1 X115.787 Y111.388 E6.80652
G1 X115.857 Y111.51 E6.80933
G1 X115.911 Y111.603 E6.81109
G1 X116.053 Y111.877 E6.81466
G0 F6000 X116.669 Y112.277
G1 F900 X116.541 Y112.277 E6.81722
G1 X116.468 Y112.277 E6.81868
G1 X103.542 Y112.277 E7.07663
G1 X103.445 Y112.277 E7.07856
G1 X103.331 Y112.277 E7.08084
G1 X103.445 Y112.002 E7.08444
G1 X103.486 Y111.914 E7.08612
G1 X103.578 Y111.717 E7.09046
G1 X103.718 Y111.448 E7.09651
G1 X103.891 Y111.148 E7.10343
G1 X104.041 Y110.915 E7.10896
G1 X104.24 Y110.631 E7.11588
G1 X104.413 Y110.405 E7.12156
G1 X104.636 Y110.14 E7.12847
G1 X104.842 Y109.915 E7.13455
G1 X105.044 Y109.714 E7.14024
G1 X105.293 Y109.486 E7.14698
G1 X105.307 Y109.475 E7.14733
G1 X105.508 Y109.307 E7.15256
G1 X105.762 Y109.112 E7.15895
G1 X106.046 Y108.913 E7.16587
G1 X106.292 Y108.757 E7.17169
G1 X106.556 Y108.605 E7.17777
G1 X106.857 Y108.448 E7.18454
G1 X107.099 Y108.336 E7.18986
G1 X107.391 Y108.215 E7.19617
G1 X107.721 Y108.094 E7.20318
G1 X108.017 Y108.002 E7.20937
G1 X108.287 Y107.93 E7.21495
G1 X108.609 Y107.859 E7.22153
G1 X108.91 Y107.805 E7.22763
G1 X109.237 Y107.763 E7.23421
G1 X109.512 Y107.739 E7.23972
G1 X109.867 Y107.723 E7.24681
G1 X110.134 Y107.723 E7.25214
G1 X110.489 Y107.738 E7.25923
G1 X110.763 Y107.763 E7.26472
G1 X111.09 Y107.805 E7.2713
G1 X111.391 Y107.859 E7.2774
G1 X111.713 Y107.93 E7.28398
G1 X111.983 Y108.002 E7.28956
G1 X112.279 Y108.094 E7.29574
G1 X112.609 Y108.215 E7.30276
G1 X112.892 Y108.332 E7.30887
G1 X113.16 Y108.457 E7.31477
G1 X113.461 Y108.613 E7.32153
G1 X113.694 Y108.748 E7.32691
G1 X113.954 Y108.913 E7.33305
G1 X114.238 Y109.111 E7.33996
G1 X114.474 Y109.292 E7.3459
G1 X114.707 Y109.486 E7.35195
G1 X114.956 Y109.714 E7.35869
G1 X115.158 Y109.915 E7.36437
G1 X115.364 Y110.14 E7.37046
G1 X115.587 Y110.405 E7.37737
G1 X115.755 Y110.624 E7.38288
G1 X115.959 Y110.915 E7.38997
G1 X116.124 Y111.172 E7.39607
G1 X116.266 Y111.418 E7.40174
G1 X116.422 Y111.718 E7.40848
G1 X116.51 Y111.906 E7.41263
G1 X116.541 Y111.972 E7.41382
