; generated by PrusaSlicer 2.4.0+x64 on 2022-01-20 at 02:46:48 UTC

; 

; external perimeters extrusion width = 0.45mm
; perimeters extrusion width = 0.45mm
; infill extrusion width = 0.45mm
; solid infill extrusion width = 0.45mm
; top infill extrusion width = 0.40mm
; first layer extrusion width = 0.42mm

M201 X500 Y500 Z100 E5000 ; sets maximum accelerations, mm/sec^2
M203 X500 Y500 Z10 E60 ; sets maximum feedrates, mm/sec
M204 P500 R1000 T500 ; sets acceleration (P, T) and retract acceleration (R), mm/sec^2
M205 X8.00 Y8.00 Z0.40 E5.00 ; sets the jerk limits, mm/sec
M205 S0 T0 ; sets the minimum extruding and travel feed rate, mm/sec
M107
;TYPE:Custom
G90 ; use absolute coordinates
M83 ; extruder relative mode
M140 S85 ; set final bed temp
M104 S150 ; set temporary nozzle temp to prevent oozing during homing
G4 S10 ; allow partial nozzle warmup
G28 ; home all axis
G1 Z50 F240
G1 X2 Y10 F3000
M104 S250 ; set final nozzle temp
M190 S85 ; wait for bed temp to stabilize
M109 S250 ; wait for nozzle temp to stabilize
G1 Z0.28 F240
G92 E0
G1 Y140 E10 F1500 ; prime the nozzle
G1 X2.3 F5000
G92 E0
G1 Y10 E10 F1200 ; prime the nozzle
G92 E0
G21 ; set units to millimeters
G90 ; use absolute coordinates
M83 ; use relative distances for extrusion
; Filament gcode
M107
;LAYER_CHANGE
;Z:0.2
;HEIGHT:0.2
;BEFORE_LAYER_CHANGE
G92 E0
;0.2


G1 E-5 F3600
G1 Z.2 F9000
;AFTER_LAYER_CHANGE
;0.2
G1 X64.267 Y42.417
G1 E5 F2400
M204 S500
;TYPE:Skirt/Brim
;WIDTH:0.42
G1 F1200
G1 X65.357 Y41.203 E.05115
G1 X67.25 Y40.623 E.06207
G1 X152.75 Y40.623 E2.68079
G1 X154.333 Y41.017 E.05115
G1 X155.547 Y42.107 E.05115
G1 X156.127 Y44 E.06207
G1 X156.127 Y176 E4.13877
G1 X155.733 Y177.583 E.05115
G1 X154.643 Y178.797 E.05115
G1 X152.75 Y179.377 E.06207
G1 X67.25 Y179.377 E2.68079
G1 X65.667 Y178.983 E.05115
G1 X64.453 Y177.893 E.05115
G1 X63.873 Y176 E.06207
G1 X63.873 Y44 E4.13877
G1 X64.253 Y42.475 E.04927
G1 E-3.5 F3600
;WIPE_START
G1 F7200
G1 X65.357 Y41.203 E-.80023
G1 X66.615 Y40.818 E-.62477
;WIPE_END
G1 E-.075 F3600
G1 X148.121 Y170.592 F9000
G1 E5 F2400
;TYPE:External perimeter
G1 F1200
G1 X148.52 Y170.384 E.0141
G1 X148.941 Y170.251 E.01386
G1 X149.168 Y170.211 E.00722
G1 X149.497 Y170.189 E.01033
G1 X149.942 Y170.228 E.01402
G1 X150.262 Y170.306 E.01033
G1 X150.484 Y170.386 E.00739
G1 X150.874 Y170.589 E.01378
G1 X151.144 Y170.787 E.0105
G1 X151.31 Y170.94 E.00708
G1 X151.463 Y171.106 E.00707
G1 X151.661 Y171.376 E.0105
G1 X151.866 Y171.77 E.01392
G1 X151.999 Y172.193 E.01392
G1 X152.05 Y172.519 E.01033
G1 X152.06 Y172.75 E.00725
G1 X152.05 Y172.975 E.00708
G1 X152.001 Y173.301 E.01033
G1 X151.867 Y173.725 E.01395
G1 X151.77 Y173.934 E.00722
G1 X151.596 Y174.221 E.0105
G1 X151.311 Y174.561 E.01392
G1 X150.972 Y174.845 E.01385
G1 X150.778 Y174.968 E.00722
G1 X150.478 Y175.117 E.0105
G1 X150.057 Y175.249 E.01385
G1 X149.731 Y175.3 E.01032
G1 X149.5 Y175.31 E.00725
G1 X149.275 Y175.3 E.00708
G1 X148.949 Y175.251 E.01033
G1 X148.525 Y175.117 E.01395
G1 X148.316 Y175.02 E.00722
G1 X148.034 Y174.849 E.01033
G1 X147.689 Y174.561 E.01409
G1 X147.404 Y174.221 E.01393
G1 X147.23 Y173.934 E.0105
G1 X147.133 Y173.726 E.00722
G1 X147.001 Y173.307 E.01378
G1 X146.95 Y172.981 E.01032
G1 X146.94 Y172.75 E.00725
G1 X146.95 Y172.525 E.00708
G1 X146.999 Y172.199 E.01033
G1 X147.133 Y171.772 E.01402
G1 X147.279 Y171.477 E.01033
G1 X147.405 Y171.278 E.00739
G1 X147.686 Y170.943 E.01371
G1 X147.856 Y170.787 E.00722
G1 X148.073 Y170.628 E.00844
G1 X148.112 Y170.192 F9000
G1 E-3.5 F3600
;WIPE_START
G1 F7200
G1 X148.52 Y170.384 E-.24176
G1 X148.941 Y170.251 E-.20992
G1 X149.168 Y170.211 E-.10932
G1 X149.497 Y170.189 E-.15642
G1 X149.942 Y170.228 E-.21242
G1 X150.262 Y170.306 E-.15651
G1 X150.484 Y170.386 E-.11199
G1 X150.874 Y170.589 E-.20883
G1 X150.904 Y170.611 E-.01784
;WIPE_END
G1 E-.075 F3600
G1 X152.063 Y171.332 F9000
G1 E5 F2400
;TYPE:Perimeter
G1 F1200
G1 X151.982 Y171.176 E.00549
G1 X151.755 Y170.866 E.01205
G1 X151.577 Y170.673 E.00824
G1 X151.384 Y170.495 E.00824
G1 X151.074 Y170.268 E.01205
G1 X150.636 Y170.04 E.01547
G1 X150.371 Y169.944 E.00882
G1 X150.003 Y169.855 E.01188
G1 X149.5 Y169.811 E.01583
G1 X149.123 Y169.836 E.01187
G1 X148.852 Y169.884 E.00863
G1 X148.375 Y170.035 E.01567
G1 X147.921 Y170.271 E.01604
G1 X147.616 Y170.495 E.01187
G1 X147.413 Y170.681 E.00863
G1 X147.1 Y171.055 E.01527
G1 X146.949 Y171.292 E.00882
G1 X146.782 Y171.632 E.01188
G1 X146.631 Y172.114 E.01583
G1 X146.574 Y172.488 E.01187
G1 X146.574 Y173.019 E.01664
G1 X146.632 Y173.393 E.01186
G1 X146.781 Y173.863 E.01545
G1 X146.897 Y174.112 E.00864
G1 X147.096 Y174.441 E.01205
G1 X147.422 Y174.829 E.01588
G1 X147.814 Y175.157 E.01604
G1 X148.072 Y175.313 E.00944
G1 X71.932 Y175.313 E2.3873
G1 X72.196 Y175.149 E.00972
G1 X72.578 Y174.828 E.01566
G1 X72.904 Y174.441 E.01586
G1 X73.103 Y174.112 E.01205
G1 X73.22 Y173.862 E.00865
G1 X73.369 Y173.386 E.01564
G1 X73.426 Y173.012 E.01187
G1 X73.426 Y172.481 E.01664
G1 X73.368 Y172.107 E.01187
G1 X73.216 Y171.625 E.01586
G1 X72.982 Y171.176 E.01586
G1 X72.755 Y170.866 E.01205
G1 X72.577 Y170.673 E.00824
G1 X72.384 Y170.495 E.00824
G1 X72.074 Y170.268 E.01205
G1 X71.636 Y170.04 E.01547
G1 X71.371 Y169.944 E.00882
G1 X71.003 Y169.855 E.01188
G1 X70.5 Y169.811 E.01583
G1 X70.123 Y169.836 E.01187
G1 X69.852 Y169.884 E.00863
G1 X69.375 Y170.035 E.01567
G1 X68.921 Y170.271 E.01604
G1 X68.616 Y170.495 E.01187
G1 X68.413 Y170.681 E.00863
G1 X68.1 Y171.055 E.01527
G1 X67.937 Y171.317 E.00969
G1 X67.937 Y44.687 E3.9704
G1 X152.063 Y44.687 E2.63771
G1 X152.063 Y171.272 E3.96898
G1 E-3.5 F3600
;WIPE_START
G1 F7200
G1 X151.982 Y171.176 E-.05943
G1 X151.755 Y170.866 E-.18259
G1 X151.577 Y170.673 E-.12478
G1 X151.384 Y170.495 E-.12478
G1 X151.074 Y170.268 E-.18257
G1 X150.636 Y170.04 E-.23443
G1 X150.371 Y169.944 E-.13358
G1 X150.003 Y169.855 E-.17996
G1 X149.578 Y169.818 E-.20289
;WIPE_END
G1 E-.075 F3600
G1 X152.063 Y175.313 F9000
G1 E5 F2400
G1 F1200
G1 X150.932 Y175.313 E.03545
G1 X151.196 Y175.149 E.00972
G1 X151.578 Y174.828 E.01566
G1 X151.904 Y174.441 E.01586
G1 X152.063 Y174.178 E.00963
G1 X152.063 Y175.253 E.03369
G1 E-3.5 F3600
;WIPE_START
G1 F7200
G1 X150.932 Y175.313 E-.53784
G1 X151.196 Y175.149 E-.14732
G1 X151.578 Y174.828 E-.23725
G1 X151.904 Y174.441 E-.24031
G1 X152.063 Y174.178 E-.14586
G1 X152.063 Y174.423 E-.11643
;WIPE_END
G1 E-.075 F3600
G1 X73.06 Y172.75 F9000
G1 E5 F2400
;TYPE:External perimeter
G1 F1200
G1 X73.05 Y172.975 E.00708
G1 X73.001 Y173.301 E.01033
G1 X72.867 Y173.725 E.01395
G1 X72.77 Y173.934 E.00722
G1 X72.596 Y174.221 E.0105
G1 X72.311 Y174.561 E.01392
G1 X71.972 Y174.845 E.01385
G1 X71.778 Y174.968 E.00722
G1 X71.478 Y175.117 E.0105
G1 X71.057 Y175.249 E.01385
G1 X70.731 Y175.3 E.01032
G1 X70.5 Y175.31 E.00725
G1 X70.275 Y175.3 E.00708
G1 X69.949 Y175.251 E.01033
G1 X69.525 Y175.117 E.01395
G1 X69.316 Y175.02 E.00722
G1 X69.034 Y174.849 E.01033
G1 X68.689 Y174.561 E.01409
G1 X68.404 Y174.221 E.01393
G1 X68.23 Y173.934 E.0105
G1 X68.133 Y173.726 E.00722
G1 X68.001 Y173.307 E.01378
G1 X67.95 Y172.981 E.01032
G1 X67.94 Y172.75 E.00725
G1 X67.95 Y172.525 E.00708
G1 X67.999 Y172.199 E.01033
G1 X68.133 Y171.772 E.01402
G1 X68.279 Y171.477 E.01033
G1 X68.405 Y171.278 E.00739
G1 X68.686 Y170.943 E.01371
G1 X68.856 Y170.787 E.00722
G1 X69.121 Y170.592 E.01033
G1 X69.52 Y170.384 E.0141
G1 X69.941 Y170.251 E.01386
G1 X70.168 Y170.211 E.00722
G1 X70.497 Y170.189 E.01033
G1 X70.942 Y170.228 E.01402
G1 X71.262 Y170.306 E.01033
G1 X71.484 Y170.386 E.00739
G1 X71.874 Y170.589 E.01378
G1 X72.144 Y170.787 E.0105
G1 X72.31 Y170.94 E.00708
G1 X72.463 Y171.106 E.00707
G1 X72.661 Y171.376 E.0105
G1 X72.866 Y171.77 E.01392
G1 X72.999 Y172.193 E.01392
G1 X73.058 Y172.69 E.01567
G1 X73.26 Y172.856 F9000
G1 E-3.5 F3600
;WIPE_START
G1 F7200
G1 X73.05 Y172.975 E-.13564
G1 X73.001 Y173.301 E-.15643
G1 X72.867 Y173.725 E-.21136
G1 X72.77 Y173.934 E-.10944
G1 X72.596 Y174.221 E-.15908
G1 X72.311 Y174.561 E-.21093
G1 X71.972 Y174.845 E-.20984
G1 X71.778 Y174.968 E-.10937
G1 X71.546 Y175.083 E-.12289
;WIPE_END
G1 E-.075 F3600
G1 X67.937 Y174.913 F9000
G1 E5 F2400
;TYPE:Perimeter
G1 F1200
G1 X67.937 Y174.178 E.02303
G1 X68.096 Y174.441 E.00963
G1 X68.422 Y174.829 E.01588
G1 X68.814 Y175.157 E.01604
G1 X69.072 Y175.313 E.00944
G1 X67.937 Y175.313 E.03557
G1 X67.937 Y174.973 E.01066
G1 X67.56 Y175.69 F9000
;TYPE:External perimeter
G1 F1200
G1 X67.56 Y44.31 E4.11933
G1 X152.44 Y44.31 E2.66135
G1 X152.44 Y175.69 E4.11933
G1 X67.62 Y175.69 E2.65947
G1 X67.636 Y175.297 F9000
G1 X68.221 Y175.029
;TYPE:Gap fill
;WIDTH:0.232818
G1 F1200
G1 X68.126 Y174.784 E.00415
G1 X68.221 Y175.029 F9000
;WIDTH:0.23282
G1 F1200
G1 X68.464 Y175.124 E.00412
G1 X69.255 Y175.358 F9000
;WIDTH:0.278837
G1 F1200
G1 X69.41 Y175.392 E.00312
;WIDTH:0.261107
G1 X69.424 Y175.395 E.00026
;WIDTH:0.255766
G1 X69.582 Y175.419 E.00282
;WIDTH:0.207583
G1 X69.739 Y175.443 E.00218
;WIDTH:0.1594
G1 X69.896 Y175.467 E.00154
;WIDTH:0.111216
G1 X69.901 Y175.468 E.00003
;WIDTH:0.110038
G1 X70.036 Y175.478 E.00076
G1 X70.963 Y175.478 F9000
;WIDTH:0.11125
G1 F1200
G1 X71.105 Y175.467 E.00081
;WIDTH:0.112458
G1 X71.11 Y175.467 E.00003
;WIDTH:0.160736
G1 X71.267 Y175.443 E.00155
;WIDTH:0.209013
G1 X71.424 Y175.418 E.00219
;WIDTH:0.25729
G1 X71.58 Y175.394 E.00283
;WIDTH:0.263714
G1 X71.597 Y175.391 E.00031
;WIDTH:0.280432
G1 X71.749 Y175.356 E.00307
G1 E-3.5 F3600
;WIPE_START
G1 F7200
G1 X71.597 Y175.391 E-.07389
;WIPE_END
G1 E-1.42611 F3600
G1 X67.892 Y173.995 F9000
G1 E5 F2400
;WIDTH:0.278812
G1 F1200
G1 X67.858 Y173.84 E.00311
;WIDTH:0.261234
G1 X67.855 Y173.826 E.00026
;WIDTH:0.255936
G1 X67.831 Y173.671 E.00278
;WIDTH:0.20811
G1 X67.807 Y173.515 E.00216
;WIDTH:0.160283
G1 X67.783 Y173.36 E.00153
;WIDTH:0.112456
G1 X67.783 Y173.355 E.00003
;WIDTH:0.111248
G1 X67.772 Y173.213 E.00081
G1 X67.772 Y172.286 F9000
;WIDTH:0.110034
G1 F1200
G1 X67.782 Y172.151 E.00076
;WIDTH:0.111214
G1 X67.783 Y172.146 E.00003
;WIDTH:0.159828
G1 X67.807 Y171.987 E.00156
;WIDTH:0.208443
G1 X67.831 Y171.829 E.00221
;WIDTH:0.257058
G1 X67.856 Y171.67 E.00286
;WIDTH:0.263482
G1 X67.859 Y171.653 E.00031
;WIDTH:0.280626
G1 X67.894 Y171.501 E.0031
G1 E-3.5 F3600
;WIPE_START
G1 F7200
G1 X67.859 Y171.653 E-.07442
;WIPE_END
G1 E-1.42558 F3600
G1 X148.255 Y175.358 F9000
G1 E5 F2400
;WIDTH:0.278837
G1 F1200
G1 X148.41 Y175.392 E.00312
;WIDTH:0.261107
G1 X148.424 Y175.395 E.00026
;WIDTH:0.255766
G1 X148.582 Y175.419 E.00282
;WIDTH:0.207583
G1 X148.739 Y175.443 E.00218
;WIDTH:0.1594
G1 X148.896 Y175.467 E.00154
;WIDTH:0.111216
G1 X148.901 Y175.468 E.00003
;WIDTH:0.110038
G1 X149.036 Y175.478 E.00076
G1 X149.963 Y175.478 F9000
;WIDTH:0.11125
G1 F1200
G1 X150.105 Y175.467 E.00081
;WIDTH:0.112458
G1 X150.11 Y175.467 E.00003
;WIDTH:0.160736
G1 X150.267 Y175.443 E.00155
;WIDTH:0.209013
G1 X150.424 Y175.418 E.00219
;WIDTH:0.25729
G1 X150.58 Y175.394 E.00283
;WIDTH:0.263714
G1 X150.597 Y175.391 E.00031
;WIDTH:0.280432
G1 X150.749 Y175.356 E.00307
G1 X151.535 Y175.124 F9000
;WIDTH:0.232858
G1 F1200
G1 X151.779 Y175.029 E.00414
;WIDTH:0.232856
G1 X151.874 Y174.785 E.00414
G1 X152.108 Y173.995 F9000
;WIDTH:0.278812
G1 F1200
G1 X152.142 Y173.84 E.00312
;WIDTH:0.261106
G1 X152.145 Y173.826 E.00026
;WIDTH:0.255764
G1 X152.169 Y173.668 E.00282
;WIDTH:0.20758
G1 X152.193 Y173.511 E.00218
;WIDTH:0.159396
G1 X152.217 Y173.354 E.00154
;WIDTH:0.111212
G1 X152.218 Y173.349 E.00003
;WIDTH:0.110034
G1 X152.228 Y173.214 E.00076
G1 X152.228 Y172.287 F9000
;WIDTH:0.111252
G1 F1200
G1 X152.217 Y172.145 E.00081
;WIDTH:0.11246
G1 X152.217 Y172.14 E.00003
;WIDTH:0.161186
G1 X152.192 Y171.982 E.00157
;WIDTH:0.20991
G1 X152.168 Y171.823 E.00222
;WIDTH:0.258634
G1 X152.144 Y171.665 E.00287
;WIDTH:0.26626
G1 X152.14 Y171.646 E.00036
;WIDTH:0.275166
G1 X152.108 Y171.515 E.0026
G1 E-3.5 F3600
;WIPE_START
G1 F7200
G1 X152.14 Y171.646 E-.06406
;WIPE_END
G1 E-1.43594 F3600
G1 X151.187 Y44.8 F9000
G1 E5 F2400
;TYPE:Solid infill
;WIDTH:0.420066
G1 F1200
G1 X151.78 Y45.393 E.02629
G1 X151.78 Y45.926 E.01673
G1 X150.824 Y44.97 E.04242
G1 X150.29 Y44.97 E.01673
G1 X151.78 Y46.46 E.06607
G1 X151.78 Y46.993 E.01673
G1 X149.757 Y44.97 E.08973
G1 X149.224 Y44.97 E.01673
G1 X151.78 Y47.526 E.11338
G1 X151.78 Y48.06 E.01673
G1 X148.69 Y44.97 E.13703
G1 X148.157 Y44.97 E.01673
G1 X151.78 Y48.593 E.16069
G1 X151.78 Y49.126 E.01673
G1 X147.624 Y44.97 E.18434
G1 X147.09 Y44.97 E.01673
G1 X151.78 Y49.66 E.208
G1 X151.78 Y50.193 E.01673
G1 X146.557 Y44.97 E.23165
G1 X146.023 Y44.97 E.01673
G1 X151.78 Y50.727 E.25531
G1 X151.78 Y51.26 E.01673
G1 X145.49 Y44.97 E.27896
G1 X144.957 Y44.97 E.01673
G1 X151.78 Y51.793 E.30262
G1 X151.78 Y52.327 E.01673
G1 X144.423 Y44.97 E.32627
G1 X143.89 Y44.97 E.01673
G1 X151.78 Y52.86 E.34992
G1 X151.78 Y53.393 E.01673
G1 X143.357 Y44.97 E.37358
G1 X142.823 Y44.97 E.01673
G1 X151.78 Y53.927 E.39723
G1 X151.78 Y54.46 E.01673
G1 X142.29 Y44.97 E.42089
G1 X141.757 Y44.97 E.01673
G1 X151.78 Y54.993 E.44454
G1 X151.78 Y55.527 E.01673
G1 X141.223 Y44.97 E.4682
G1 X140.69 Y44.97 E.01673
G1 X151.78 Y56.06 E.49185
G1 X151.78 Y56.594 E.01673
G1 X140.156 Y44.97 E.51551
G1 X139.623 Y44.97 E.01673
G1 X151.78 Y57.127 E.53916
G1 X151.78 Y57.66 E.01673
G1 X139.09 Y44.97 E.56281
G1 X138.556 Y44.97 E.01673
G1 X151.78 Y58.194 E.58647
G1 X151.78 Y58.727 E.01673
G1 X138.023 Y44.97 E.61012
G1 X137.49 Y44.97 E.01673
G1 X151.78 Y59.26 E.63378
G1 X151.78 Y59.794 E.01673
G1 X136.956 Y44.97 E.65743
G1 X136.423 Y44.97 E.01673
G1 X151.78 Y60.327 E.68109
G1 X151.78 Y60.861 E.01673
G1 X135.89 Y44.97 E.70474
G1 X135.356 Y44.97 E.01673
G1 X151.78 Y61.394 E.7284
G1 X151.78 Y61.927 E.01673
G1 X134.823 Y44.97 E.75205
G1 X134.289 Y44.97 E.01673
G1 X151.78 Y62.461 E.7757
G1 X151.78 Y62.994 E.01673
G1 X133.756 Y44.97 E.79936
G1 X133.223 Y44.97 E.01673
G1 X151.78 Y63.527 E.82301
G1 X151.78 Y64.061 E.01673
G1 X132.689 Y44.97 E.84667
G1 X132.156 Y44.97 E.01673
G1 X151.78 Y64.594 E.87032
G1 X151.78 Y65.127 E.01673
G1 X131.623 Y44.97 E.89398
G1 X131.089 Y44.97 E.01673
G1 X151.78 Y65.661 E.91763
G1 X151.78 Y66.194 E.01673
G1 X130.556 Y44.97 E.94129
G1 X130.022 Y44.97 E.01673
G1 X151.78 Y66.728 E.96494
G1 X151.78 Y67.261 E.01673
G1 X129.489 Y44.97 E.98859
G1 X128.956 Y44.97 E.01673
G1 X151.78 Y67.794 E1.01225
G1 X151.78 Y68.328 E.01673
G1 X128.422 Y44.97 E1.0359
G1 X127.889 Y44.97 E.01673
G1 X151.78 Y68.861 E1.05956
G1 X151.78 Y69.394 E.01673
G1 X127.356 Y44.97 E1.08321
G1 X126.822 Y44.97 E.01673
G1 X151.78 Y69.928 E1.10687
G1 X151.78 Y70.461 E.01673
G1 X126.289 Y44.97 E1.13052
G1 X125.756 Y44.97 E.01673
G1 X151.78 Y70.994 E1.15418
G1 X151.78 Y71.528 E.01673
G1 X125.222 Y44.97 E1.17783
G1 X124.689 Y44.97 E.01673
G1 X151.78 Y72.061 E1.20148
G1 X151.78 Y72.595 E.01673
G1 X124.155 Y44.97 E1.22514
G1 X123.622 Y44.97 E.01673
G1 X151.78 Y73.128 E1.24879
G1 X151.78 Y73.661 E.01673
G1 X123.089 Y44.97 E1.27245
G1 X122.555 Y44.97 E.01673
G1 X151.78 Y74.195 E1.2961
G1 X151.78 Y74.728 E.01673
G1 X122.022 Y44.97 E1.31976
G1 X121.489 Y44.97 E.01673
G1 X151.78 Y75.261 E1.34341
G1 X151.78 Y75.795 E.01673
G1 X120.955 Y44.97 E1.36707
G1 X120.422 Y44.97 E.01673
G1 X151.78 Y76.328 E1.39072
G1 X151.78 Y76.861 E.01673
G1 X119.889 Y44.97 E1.41437
G1 X119.355 Y44.97 E.01673
G1 X151.78 Y77.395 E1.43803
G1 X151.78 Y77.928 E.01673
G1 X118.822 Y44.97 E1.46168
G1 X118.288 Y44.97 E.01673
G1 X151.78 Y78.462 E1.48534
G1 X151.78 Y78.995 E.01673
G1 X117.755 Y44.97 E1.50899
G1 X117.222 Y44.97 E.01673
G1 X151.78 Y79.528 E1.53265
G1 X151.78 Y80.062 E.01673
G1 X116.688 Y44.97 E1.5563
G1 X116.155 Y44.97 E.01673
G1 X151.78 Y80.595 E1.57996
G1 X151.78 Y81.128 E.01673
G1 X115.622 Y44.97 E1.60361
G1 X115.088 Y44.97 E.01673
G1 X151.78 Y81.662 E1.62726
G1 X151.78 Y82.195 E.01673
G1 X114.555 Y44.97 E1.65092
G1 X114.022 Y44.97 E.01673
G1 X151.78 Y82.728 E1.67457
G1 X151.78 Y83.262 E.01673
G1 X113.488 Y44.97 E1.69823
G1 X112.955 Y44.97 E.01673
G1 X151.78 Y83.795 E1.72188
G1 X151.78 Y84.329 E.01673
G1 X112.421 Y44.97 E1.74554
G1 X111.888 Y44.97 E.01673
G1 X151.78 Y84.862 E1.76919
G1 X151.78 Y85.395 E.01673
